%
(-----------------------------------)
( Postprozessor: VCarvePro PP v1.3  )
(-----------------------------------)
N25 G54 G17 G21 (erstes KOSY, XY Ebene, Milimeter)
N30 G40 G43 G90 (Radiuskompensation aus, Werkzeuglängenkomp. an, absolute Koordinaten)
(--------------------------------)
( Materialinfo:                  )
(--------------------------------)
(  X Laenge = 100.000)
(  Y Laenge = 100.000)
(  Z Laenge = 3.000)
(  X Min = 0.000 X Max = 100.000)
(  Y Min = -100.000 Y Max = 0.000)
(  Z Min = -3.000 Z Max = 0.000)
( Parkpos: X = X100.00 Y = Y0.00 Z = Z80.00)
( Sicherheitshoehe: Z = Z60.00)
(--------------------------------)
( Erstes Werkzeug                )
(--------------------------------)
(  Werkzeug      = 3 Lerrox 1 mm - nicht getestet!)
(  Vorschub      = 60 mm/min)
(  Einstechen    = 30 mm/min)
(  Drehzahl      = S18000 U/min)
(--------------------------------)
N130 T3 M06 (Werkzeugwechsel)
N135 G43 (Längenkomp. an)
N140 S18000 M03 (Spindel im Uhrzeigersinn)
N145 G94 (Feedrate in mm/min)
N150 (Fahre auf Sicherheitspos.)
N155 G00 Z80.00
N160 G00 X100.00 Y0.00
(--------------------------------)
( Konturname = Kontur 1)
(--------------------------------)
N180 G00 X72.51 Y-7.67 Z60.00
N185 G00 X72.51 Y-7.67 Z3.00
N190 G01 X72.51 Y-7.67 Z-0.50 F30.0
N195 G01 X72.51 Y-10.18 Z-0.50 F60.0
N200 G01 X72.33 Y-10.18 Z-0.50
N205 G01 X72.33 Y-2.48 Z-0.50
N210 G01 X72.51 Y-2.48 Z-0.50
N215 G01 X72.51 Y-7.47 Z-0.50
N220 G01 X75.81 Y-5.82 Z-0.50
N225 G01 X75.88 Y-5.98 Z-0.50
N230 G01 X74.24 Y-6.79 Z-0.50
N235 G01 X75.92 Y-10.14 Z-0.50
N240 G01 X75.76 Y-10.20 Z-0.50
N245 G01 X74.09 Y-6.87 Z-0.50
N250 G01 X72.51 Y-7.67 Z-0.50
N255 G00 X72.51 Y-7.67 Z60.00
N260 G00 X67.20 Y-8.68 Z60.00
N265 G00 X67.20 Y-8.68 Z3.00
N270 G01 X67.20 Y-8.68 Z-0.50 F30.0
N275 G01 X67.20 Y-6.55 Z-0.50 F60.0
N280 G01 X67.23 Y-6.23 Z-0.50
N285 G01 X67.27 Y-6.08 Z-0.50
N290 G01 X67.32 Y-5.94 Z-0.50
N295 G01 X67.38 Y-5.80 Z-0.50
N300 G01 X67.46 Y-5.67 Z-0.50
N305 G01 X67.55 Y-5.55 Z-0.50
N310 G01 X67.66 Y-5.43 Z-0.50
N315 G01 X67.78 Y-5.32 Z-0.50
N320 G01 X67.91 Y-5.23 Z-0.50
N325 G01 X68.04 Y-5.15 Z-0.50
N330 G01 X68.17 Y-5.08 Z-0.50
N335 G01 X68.32 Y-5.03 Z-0.50
N340 G01 X68.47 Y-5.00 Z-0.50
N345 G01 X68.79 Y-4.97 Z-0.50
N350 G01 X69.85 Y-4.97 Z-0.50
N355 G01 X69.85 Y-5.13 Z-0.50
N360 G01 X68.79 Y-5.13 Z-0.50
N365 G01 X68.50 Y-5.16 Z-0.50
N370 G01 X68.24 Y-5.24 Z-0.50
N375 G01 X68.00 Y-5.37 Z-0.50
N380 G01 X67.78 Y-5.55 Z-0.50
N385 G01 X67.61 Y-5.76 Z-0.50
N390 G01 X67.48 Y-6.00 Z-0.50
N395 G01 X67.40 Y-6.26 Z-0.50
N400 G01 X67.38 Y-6.55 Z-0.50
N405 G01 X67.38 Y-8.68 Z-0.50
N410 G01 X67.40 Y-8.97 Z-0.50
N415 G01 X67.48 Y-9.23 Z-0.50
N420 G01 X67.61 Y-9.47 Z-0.50
N425 G01 X67.78 Y-9.68 Z-0.50
N430 G01 X68.00 Y-9.86 Z-0.50
N435 G01 X68.24 Y-9.99 Z-0.50
N440 G01 X68.50 Y-10.07 Z-0.50
N445 G01 X68.79 Y-10.09 Z-0.50
N450 G01 X69.85 Y-10.09 Z-0.50
N455 G01 X69.85 Y-10.25 Z-0.50
N460 G01 X68.79 Y-10.25 Z-0.50
N465 G01 X68.47 Y-10.22 Z-0.50
N470 G01 X68.32 Y-10.19 Z-0.50
N475 G01 X68.17 Y-10.14 Z-0.50
N480 G01 X68.03 Y-10.07 Z-0.50
N485 G01 X67.90 Y-10.00 Z-0.50
N490 G01 X67.78 Y-9.90 Z-0.50
N495 G01 X67.66 Y-9.80 Z-0.50
N500 G01 X67.46 Y-9.56 Z-0.50
N505 G01 X67.38 Y-9.43 Z-0.50
N510 G01 X67.32 Y-9.29 Z-0.50
N515 G01 X67.27 Y-9.15 Z-0.50
N520 G01 X67.23 Y-9.00 Z-0.50
N525 G01 X67.20 Y-8.68 Z-0.50
N530 G00 X67.20 Y-8.68 Z60.00
N535 G00 X61.58 Y-8.17 Z60.00
N540 G00 X61.58 Y-8.17 Z3.00
N545 G01 X61.58 Y-8.17 Z-0.50 F30.0
N550 G01 X61.48 Y-8.37 Z-0.50 F60.0
N555 G01 X61.42 Y-8.62 Z-0.50
N560 G01 X61.39 Y-8.90 Z-0.50
N565 G01 X61.40 Y-9.07 Z-0.50
N570 G01 X61.43 Y-9.23 Z-0.50
N575 G01 X61.47 Y-9.38 Z-0.50
N580 G01 X61.54 Y-9.52 Z-0.50
N585 G01 X61.61 Y-9.64 Z-0.50
N590 G01 X61.71 Y-9.75 Z-0.50
N595 G01 X61.83 Y-9.84 Z-0.50
N600 G01 X61.96 Y-9.92 Z-0.50
N605 G01 X62.12 Y-10.00 Z-0.50
N610 G01 X62.31 Y-10.05 Z-0.50
N615 G01 X62.50 Y-10.09 Z-0.50
N620 G01 X62.72 Y-10.10 Z-0.50
N625 G01 X64.64 Y-10.10 Z-0.50
N630 G01 X64.64 Y-7.70 Z-0.50
N635 G01 X62.72 Y-7.70 Z-0.50
N640 G01 X62.41 Y-7.72 Z-0.50
N645 G01 X62.14 Y-7.78 Z-0.50
N650 G01 X61.91 Y-7.87 Z-0.50
N655 G01 X61.73 Y-8.00 Z-0.50
N660 G01 X61.58 Y-8.17 Z-0.50
N665 G00 X61.58 Y-8.17 Z60.00
N670 G00 X61.23 Y-8.69 Z60.00
N675 G00 X61.23 Y-8.69 Z3.00
N680 G01 X61.23 Y-8.69 Z-0.50 F30.0
N685 G01 X61.26 Y-8.51 Z-0.50 F60.0
N690 G01 X61.31 Y-8.34 Z-0.50
N695 G01 X61.38 Y-8.18 Z-0.50
N700 G01 X61.47 Y-8.05 Z-0.50
N705 G01 X61.58 Y-7.92 Z-0.50
N710 G01 X61.71 Y-7.82 Z-0.50
N715 G01 X61.85 Y-7.72 Z-0.50
N720 G01 X62.04 Y-7.64 Z-0.50
N725 G01 X62.25 Y-7.58 Z-0.50
N730 G01 X62.47 Y-7.54 Z-0.50
N735 G01 X62.72 Y-7.53 Z-0.50
N740 G01 X64.64 Y-7.53 Z-0.50
N745 G01 X64.64 Y-6.60 Z-0.50
N750 G01 X64.63 Y-6.41 Z-0.50
N755 G01 X64.60 Y-6.23 Z-0.50
N760 G01 X64.56 Y-6.06 Z-0.50
N765 G01 X64.49 Y-5.90 Z-0.50
N770 G01 X64.41 Y-5.76 Z-0.50
N775 G01 X64.31 Y-5.63 Z-0.50
N780 G01 X64.19 Y-5.52 Z-0.50
N785 G01 X64.05 Y-5.42 Z-0.50
N790 G01 X63.83 Y-5.29 Z-0.50
N795 G01 X63.58 Y-5.21 Z-0.50
N800 G01 X63.31 Y-5.15 Z-0.50
N805 G01 X63.02 Y-5.13 Z-0.50
N810 G01 X61.74 Y-5.13 Z-0.50
N815 G01 X61.74 Y-4.97 Z-0.50
N820 G01 X63.02 Y-4.97 Z-0.50
N825 G01 X63.33 Y-4.99 Z-0.50
N830 G01 X63.62 Y-5.04 Z-0.50
N835 G01 X63.89 Y-5.14 Z-0.50
N840 G01 X64.14 Y-5.27 Z-0.50
N845 G01 X64.30 Y-5.39 Z-0.50
N850 G01 X64.44 Y-5.52 Z-0.50
N855 G01 X64.55 Y-5.66 Z-0.50
N860 G01 X64.65 Y-5.82 Z-0.50
N865 G01 X64.72 Y-5.99 Z-0.50
N870 G01 X64.77 Y-6.18 Z-0.50
N875 G01 X64.81 Y-6.38 Z-0.50
N880 G01 X64.82 Y-6.60 Z-0.50
N885 G01 X64.82 Y-10.25 Z-0.50
N890 G01 X62.72 Y-10.25 Z-0.50
N895 G01 X62.49 Y-10.24 Z-0.50
N900 G01 X62.28 Y-10.20 Z-0.50
N905 G01 X62.07 Y-10.15 Z-0.50
N910 G01 X61.88 Y-10.06 Z-0.50
N915 G01 X61.72 Y-9.97 Z-0.50
N920 G01 X61.59 Y-9.86 Z-0.50
N925 G01 X61.48 Y-9.74 Z-0.50
N930 G01 X61.39 Y-9.60 Z-0.50
N935 G01 X61.31 Y-9.45 Z-0.50
N940 G01 X61.26 Y-9.28 Z-0.50
N945 G01 X61.23 Y-9.09 Z-0.50
N950 G01 X61.22 Y-8.89 Z-0.50
N955 G01 X61.23 Y-8.69 Z-0.50
N960 G00 X61.23 Y-8.69 Z60.00
N965 G00 X56.09 Y-4.97 Z60.00
N970 G00 X56.09 Y-4.97 Z3.00
N975 G01 X56.09 Y-4.97 Z-0.50 F30.0
N980 G01 X58.83 Y-4.97 Z-0.50 F60.0
N985 G01 X58.83 Y-5.91 Z-0.50
N990 G01 X58.66 Y-5.91 Z-0.50
N995 G01 X58.66 Y-5.13 Z-0.50
N1000 G01 X56.26 Y-5.13 Z-0.50
N1005 G01 X56.26 Y-10.18 Z-0.50
N1010 G01 X56.09 Y-10.18 Z-0.50
N1015 G01 X56.09 Y-4.97 Z-0.50
N1020 G00 X56.09 Y-4.97 Z60.00
N1025 G00 X53.70 Y-7.70 Z60.00
N1030 G00 X53.70 Y-7.70 Z3.00
N1035 G01 X53.70 Y-7.70 Z-0.50 F30.0
N1040 G01 X50.28 Y-7.70 Z-0.50 F60.0
N1045 G01 X50.28 Y-8.46 Z-0.50
N1050 G01 X50.31 Y-8.92 Z-0.50
N1055 G01 X50.34 Y-9.11 Z-0.50
N1060 G01 X50.38 Y-9.29 Z-0.50
N1065 G01 X50.43 Y-9.44 Z-0.50
N1070 G01 X50.50 Y-9.58 Z-0.50
N1075 G01 X50.58 Y-9.70 Z-0.50
N1080 G01 X50.67 Y-9.80 Z-0.50
N1085 G01 X50.76 Y-9.87 Z-0.50
N1090 G01 X50.86 Y-9.93 Z-0.50
N1095 G01 X51.11 Y-10.02 Z-0.50
N1100 G01 X51.41 Y-10.07 Z-0.50
N1105 G01 X51.78 Y-10.09 Z-0.50
N1110 G01 X53.62 Y-10.09 Z-0.50
N1115 G01 X53.62 Y-10.25 Z-0.50
N1120 G01 X51.78 Y-10.25 Z-0.50
N1125 G01 X51.38 Y-10.23 Z-0.50
N1130 G01 X51.05 Y-10.17 Z-0.50
N1135 G01 X50.77 Y-10.06 Z-0.50
N1140 G01 X50.66 Y-10.00 Z-0.50
N1145 G01 X50.55 Y-9.92 Z-0.50
N1150 G01 X50.45 Y-9.81 Z-0.50
N1155 G01 X50.36 Y-9.68 Z-0.50
N1160 G01 X50.28 Y-9.53 Z-0.50
N1165 G01 X50.22 Y-9.36 Z-0.50
N1170 G01 X50.17 Y-9.16 Z-0.50
N1175 G01 X50.14 Y-8.95 Z-0.50
N1180 G01 X50.12 Y-8.72 Z-0.50
N1185 G01 X50.11 Y-8.46 Z-0.50
N1190 G01 X50.11 Y-6.76 Z-0.50
N1195 G01 X50.12 Y-6.58 Z-0.50
N1200 G01 X50.14 Y-6.40 Z-0.50
N1205 G01 X50.18 Y-6.23 Z-0.50
N1210 G01 X50.24 Y-6.07 Z-0.50
N1215 G01 X50.31 Y-5.92 Z-0.50
N1220 G01 X50.40 Y-5.77 Z-0.50
N1225 G01 X50.51 Y-5.63 Z-0.50
N1230 G01 X50.63 Y-5.49 Z-0.50
N1235 G01 X50.77 Y-5.37 Z-0.50
N1240 G01 X50.91 Y-5.26 Z-0.50
N1245 G01 X51.06 Y-5.17 Z-0.50
N1250 G01 X51.21 Y-5.10 Z-0.50
N1255 G01 X51.38 Y-5.04 Z-0.50
N1260 G01 X51.55 Y-5.00 Z-0.50
N1265 G01 X51.72 Y-4.97 Z-0.50
N1270 G01 X51.91 Y-4.97 Z-0.50
N1275 G01 X52.09 Y-4.97 Z-0.50
N1280 G01 X52.27 Y-5.00 Z-0.50
N1285 G01 X52.44 Y-5.04 Z-0.50
N1290 G01 X52.60 Y-5.10 Z-0.50
N1295 G01 X52.75 Y-5.17 Z-0.50
N1300 G01 X52.90 Y-5.26 Z-0.50
N1305 G01 X53.04 Y-5.37 Z-0.50
N1310 G01 X53.17 Y-5.49 Z-0.50
N1315 G01 X53.30 Y-5.63 Z-0.50
N1320 G01 X53.41 Y-5.77 Z-0.50
N1325 G01 X53.50 Y-5.92 Z-0.50
N1330 G01 X53.57 Y-6.07 Z-0.50
N1335 G01 X53.63 Y-6.23 Z-0.50
N1340 G01 X53.67 Y-6.40 Z-0.50
N1345 G01 X53.69 Y-6.58 Z-0.50
N1350 G01 X53.70 Y-6.76 Z-0.50
N1355 G01 X53.70 Y-7.70 Z-0.50
N1360 G00 X53.70 Y-7.70 Z60.00
N1365 G00 X50.28 Y-7.53 Z60.00
N1370 G00 X50.28 Y-7.53 Z3.00
N1375 G01 X50.28 Y-7.53 Z-0.50 F30.0
N1380 G01 X53.53 Y-7.53 Z-0.50 F60.0
N1385 G01 X53.53 Y-6.76 Z-0.50
N1390 G01 X53.52 Y-6.60 Z-0.50
N1395 G01 X53.50 Y-6.44 Z-0.50
N1400 G01 X53.46 Y-6.28 Z-0.50
N1405 G01 X53.41 Y-6.14 Z-0.50
N1410 G01 X53.34 Y-6.00 Z-0.50
N1415 G01 X53.26 Y-5.86 Z-0.50
N1420 G01 X53.17 Y-5.73 Z-0.50
N1425 G01 X53.05 Y-5.61 Z-0.50
N1430 G01 X52.93 Y-5.50 Z-0.50
N1435 G01 X52.81 Y-5.40 Z-0.50
N1440 G01 X52.67 Y-5.32 Z-0.50
N1445 G01 X52.53 Y-5.25 Z-0.50
N1450 G01 X52.39 Y-5.20 Z-0.50
N1455 G01 X52.23 Y-5.16 Z-0.50
N1460 G01 X52.07 Y-5.14 Z-0.50
N1465 G01 X51.91 Y-5.13 Z-0.50
N1470 G01 X51.74 Y-5.14 Z-0.50
N1475 G01 X51.58 Y-5.16 Z-0.50
N1480 G01 X51.43 Y-5.20 Z-0.50
N1485 G01 X51.28 Y-5.25 Z-0.50
N1490 G01 X51.14 Y-5.32 Z-0.50
N1495 G01 X51.00 Y-5.40 Z-0.50
N1500 G01 X50.87 Y-5.50 Z-0.50
N1505 G01 X50.75 Y-5.61 Z-0.50
N1510 G01 X50.55 Y-5.86 Z-0.50
N1515 G01 X50.47 Y-6.00 Z-0.50
N1520 G01 X50.40 Y-6.14 Z-0.50
N1525 G01 X50.35 Y-6.29 Z-0.50
N1530 G01 X50.31 Y-6.44 Z-0.50
N1535 G01 X50.29 Y-6.60 Z-0.50
N1540 G01 X50.28 Y-6.76 Z-0.50
N1545 G01 X50.28 Y-7.53 Z-0.50
N1550 G00 X50.28 Y-7.53 Z60.00
N1555 G00 X45.84 Y-10.18 Z60.00
N1560 G00 X45.84 Y-10.18 Z3.00
N1565 G01 X45.84 Y-10.18 Z-0.50 F30.0
N1570 G01 X45.84 Y-5.13 Z-0.50 F60.0
N1575 G01 X45.06 Y-5.13 Z-0.50
N1580 G01 X45.06 Y-4.97 Z-0.50
N1585 G01 X45.84 Y-4.97 Z-0.50
N1590 G01 X45.84 Y-2.48 Z-0.50
N1595 G01 X46.00 Y-2.48 Z-0.50
N1600 G01 X46.00 Y-4.97 Z-0.50
N1605 G01 X47.63 Y-4.97 Z-0.50
N1610 G01 X47.63 Y-5.13 Z-0.50
N1615 G01 X46.00 Y-5.13 Z-0.50
N1620 G01 X46.00 Y-10.18 Z-0.50
N1625 G01 X45.84 Y-10.18 Z-0.50
N1630 G00 X45.84 Y-10.18 Z60.00
N1635 G00 X44.18 Y-19.75 Z60.00
N1640 G00 X44.18 Y-19.75 Z3.00
N1645 G01 X44.18 Y-19.75 Z-0.50 F30.0
N1650 G01 X44.23 Y-19.53 Z-0.50 F60.0
N1655 G01 X44.32 Y-19.32 Z-0.50
N1660 G01 X44.43 Y-19.12 Z-0.50
N1665 G01 X44.57 Y-18.93 Z-0.50
N1670 G01 X44.75 Y-18.77 Z-0.50
N1675 G01 X44.95 Y-18.63 Z-0.50
N1680 G01 X45.19 Y-18.51 Z-0.50
N1685 G01 X45.45 Y-18.42 Z-0.50
N1690 G01 X45.72 Y-18.36 Z-0.50
N1695 G01 X46.00 Y-18.32 Z-0.50
N1700 G01 X46.30 Y-18.30 Z-0.50
N1705 G01 X46.63 Y-18.32 Z-0.50
N1710 G01 X46.94 Y-18.36 Z-0.50
N1715 G01 X47.22 Y-18.43 Z-0.50
N1720 G01 X47.49 Y-18.52 Z-0.50
N1725 G01 X47.73 Y-18.64 Z-0.50
N1730 G01 X47.95 Y-18.79 Z-0.50
N1735 G01 X48.13 Y-18.96 Z-0.50
N1740 G01 X48.28 Y-19.16 Z-0.50
N1745 G01 X48.40 Y-19.38 Z-0.50
N1750 G01 X48.49 Y-19.61 Z-0.50
N1755 G01 X48.55 Y-19.86 Z-0.50
N1760 G01 X48.58 Y-20.12 Z-0.50
N1765 G01 X47.81 Y-20.17 Z-0.50
N1770 G01 X47.76 Y-19.91 Z-0.50
N1775 G01 X47.67 Y-19.67 Z-0.50
N1780 G01 X47.55 Y-19.47 Z-0.50
N1785 G01 X47.39 Y-19.31 Z-0.50
N1790 G01 X47.19 Y-19.18 Z-0.50
N1795 G01 X46.95 Y-19.09 Z-0.50
N1800 G01 X46.66 Y-19.03 Z-0.50
N1805 G01 X46.33 Y-19.01 Z-0.50
N1810 G01 X45.99 Y-19.03 Z-0.50
N1815 G01 X45.70 Y-19.08 Z-0.50
N1820 G01 X45.46 Y-19.16 Z-0.50
N1825 G01 X45.27 Y-19.28 Z-0.50
N1830 G01 X45.13 Y-19.42 Z-0.50
N1835 G01 X45.02 Y-19.58 Z-0.50
N1840 G01 X44.96 Y-19.74 Z-0.50
N1845 G01 X44.94 Y-19.92 Z-0.50
N1850 G01 X44.95 Y-20.08 Z-0.50
N1855 G01 X45.00 Y-20.22 Z-0.50
N1860 G01 X45.07 Y-20.35 Z-0.50
N1865 G01 X45.17 Y-20.46 Z-0.50
N1870 G01 X45.34 Y-20.57 Z-0.50
N1875 G01 X45.59 Y-20.68 Z-0.50
N1880 G01 X45.94 Y-20.78 Z-0.50
N1885 G01 X46.38 Y-20.89 Z-0.50
N1890 G01 X47.21 Y-21.10 Z-0.50
N1895 G01 X47.51 Y-21.19 Z-0.50
N1900 G01 X47.73 Y-21.28 Z-0.50
N1905 G01 X47.97 Y-21.41 Z-0.50
N1910 G01 X48.18 Y-21.56 Z-0.50
N1915 G01 X48.36 Y-21.72 Z-0.50
N1920 G01 X48.51 Y-21.90 Z-0.50
N1925 G01 X48.62 Y-22.09 Z-0.50
N1930 G01 X48.69 Y-22.30 Z-0.50
N1935 G01 X48.74 Y-22.52 Z-0.50
N1940 G01 X48.76 Y-22.76 Z-0.50
N1945 G01 X48.74 Y-23.00 Z-0.50
N1950 G01 X48.69 Y-23.23 Z-0.50
N1955 G01 X48.60 Y-23.45 Z-0.50
N1960 G01 X48.48 Y-23.67 Z-0.50
N1965 G01 X48.33 Y-23.87 Z-0.50
N1970 G01 X48.14 Y-24.05 Z-0.50
N1975 G01 X47.93 Y-24.20 Z-0.50
N1980 G01 X47.69 Y-24.33 Z-0.50
N1985 G01 X47.42 Y-24.44 Z-0.50
N1990 G01 X47.14 Y-24.51 Z-0.50
N1995 G01 X46.84 Y-24.55 Z-0.50
N2000 G01 X46.52 Y-24.57 Z-0.50
N2005 G01 X46.13 Y-24.55 Z-0.50
N2010 G01 X45.76 Y-24.51 Z-0.50
N2015 G01 X45.44 Y-24.43 Z-0.50
N2020 G01 X45.14 Y-24.33 Z-0.50
N2025 G01 X44.88 Y-24.19 Z-0.50
N2030 G01 X44.65 Y-24.03 Z-0.50
N2035 G01 X44.45 Y-23.83 Z-0.50
N2040 G01 X44.27 Y-23.61 Z-0.50
N2045 G01 X44.13 Y-23.36 Z-0.50
N2050 G01 X44.03 Y-23.10 Z-0.50
N2055 G01 X43.97 Y-22.82 Z-0.50
N2060 G01 X43.94 Y-22.52 Z-0.50
N2065 G01 X44.69 Y-22.45 Z-0.50
N2070 G01 X44.73 Y-22.67 Z-0.50
N2075 G01 X44.78 Y-22.87 Z-0.50
N2080 G01 X44.85 Y-23.05 Z-0.50
N2085 G01 X44.94 Y-23.20 Z-0.50
N2090 G01 X45.05 Y-23.34 Z-0.50
N2095 G01 X45.19 Y-23.47 Z-0.50
N2100 G01 X45.36 Y-23.58 Z-0.50
N2105 G01 X45.55 Y-23.68 Z-0.50
N2110 G01 X45.77 Y-23.76 Z-0.50
N2115 G01 X45.99 Y-23.81 Z-0.50
N2120 G01 X46.23 Y-23.85 Z-0.50
N2125 G01 X46.48 Y-23.86 Z-0.50
N2130 G01 X46.71 Y-23.85 Z-0.50
N2135 G01 X46.91 Y-23.82 Z-0.50
N2140 G01 X47.11 Y-23.78 Z-0.50
N2145 G01 X47.29 Y-23.72 Z-0.50
N2150 G01 X47.46 Y-23.65 Z-0.50
N2155 G01 X47.60 Y-23.56 Z-0.50
N2160 G01 X47.72 Y-23.46 Z-0.50
N2165 G01 X47.81 Y-23.34 Z-0.50
N2170 G01 X47.89 Y-23.22 Z-0.50
N2175 G01 X47.94 Y-23.09 Z-0.50
N2180 G01 X47.98 Y-22.96 Z-0.50
N2185 G01 X47.99 Y-22.82 Z-0.50
N2190 G01 X47.98 Y-22.69 Z-0.50
N2195 G01 X47.95 Y-22.56 Z-0.50
N2200 G01 X47.89 Y-22.44 Z-0.50
N2205 G01 X47.82 Y-22.33 Z-0.50
N2210 G01 X47.73 Y-22.23 Z-0.50
N2215 G01 X47.60 Y-22.13 Z-0.50
N2220 G01 X47.45 Y-22.05 Z-0.50
N2225 G01 X47.28 Y-21.97 Z-0.50
N2230 G01 X46.88 Y-21.85 Z-0.50
N2235 G01 X46.20 Y-21.68 Z-0.50
N2240 G01 X45.49 Y-21.48 Z-0.50
N2245 G01 X45.22 Y-21.39 Z-0.50
N2250 G01 X45.03 Y-21.30 Z-0.50
N2255 G01 X44.82 Y-21.18 Z-0.50
N2260 G01 X44.65 Y-21.04 Z-0.50
N2265 G01 X44.50 Y-20.89 Z-0.50
N2270 G01 X44.38 Y-20.73 Z-0.50
N2275 G01 X44.29 Y-20.56 Z-0.50
N2280 G01 X44.22 Y-20.37 Z-0.50
N2285 G01 X44.18 Y-20.18 Z-0.50
N2290 G01 X44.17 Y-19.98 Z-0.50
N2295 G01 X44.18 Y-19.75 Z-0.50
N2300 G00 X44.18 Y-19.75 Z60.00
N2305 G00 X49.67 Y-21.32 Z60.00
N2310 G00 X49.67 Y-21.32 Z3.00
N2315 G01 X49.67 Y-21.32 Z-0.50 F30.0
N2320 G01 X49.77 Y-21.04 Z-0.50 F60.0
N2325 G01 X49.90 Y-20.79 Z-0.50
N2330 G01 X50.07 Y-20.58 Z-0.50
N2335 G01 X50.26 Y-20.40 Z-0.50
N2340 G01 X50.49 Y-20.25 Z-0.50
N2345 G01 X50.73 Y-20.13 Z-0.50
N2350 G01 X50.99 Y-20.05 Z-0.50
N2355 G01 X51.26 Y-20.00 Z-0.50
N2360 G01 X51.54 Y-19.98 Z-0.50
N2365 G01 X51.88 Y-20.00 Z-0.50
N2370 G01 X52.18 Y-20.07 Z-0.50
N2375 G01 X52.46 Y-20.18 Z-0.50
N2380 G01 X52.70 Y-20.34 Z-0.50
N2385 G01 X52.91 Y-20.54 Z-0.50
N2390 G01 X53.08 Y-20.78 Z-0.50
N2395 G01 X53.20 Y-21.05 Z-0.50
N2400 G01 X53.29 Y-21.37 Z-0.50
N2405 G01 X52.57 Y-21.48 Z-0.50
N2410 G01 X52.51 Y-21.27 Z-0.50
N2415 G01 X52.42 Y-21.09 Z-0.50
N2420 G01 X52.32 Y-20.94 Z-0.50
N2425 G01 X52.20 Y-20.81 Z-0.50
N2430 G01 X52.06 Y-20.72 Z-0.50
N2435 G01 X51.91 Y-20.65 Z-0.50
N2440 G01 X51.74 Y-20.60 Z-0.50
N2445 G01 X51.57 Y-20.59 Z-0.50
N2450 G01 X51.30 Y-20.61 Z-0.50
N2455 G01 X51.05 Y-20.69 Z-0.50
N2460 G01 X50.84 Y-20.82 Z-0.50
N2465 G01 X50.65 Y-20.99 Z-0.50
N2470 G01 X50.57 Y-21.10 Z-0.50
N2475 G01 X50.50 Y-21.22 Z-0.50
N2480 G01 X50.44 Y-21.36 Z-0.50
N2485 G01 X50.39 Y-21.51 Z-0.50
N2490 G01 X50.32 Y-21.86 Z-0.50
N2495 G01 X50.30 Y-22.27 Z-0.50
N2500 G01 X50.32 Y-22.68 Z-0.50
N2505 G01 X50.38 Y-23.03 Z-0.50
N2510 G01 X50.43 Y-23.18 Z-0.50
N2515 G01 X50.49 Y-23.32 Z-0.50
N2520 G01 X50.56 Y-23.44 Z-0.50
N2525 G01 X50.64 Y-23.55 Z-0.50
N2530 G01 X50.82 Y-23.73 Z-0.50
N2535 G01 X51.03 Y-23.85 Z-0.50
N2540 G01 X51.26 Y-23.93 Z-0.50
N2545 G01 X51.52 Y-23.95 Z-0.50
N2550 G01 X51.73 Y-23.93 Z-0.50
N2555 G01 X51.92 Y-23.88 Z-0.50
N2560 G01 X52.10 Y-23.80 Z-0.50
N2565 G01 X52.25 Y-23.68 Z-0.50
N2570 G01 X52.39 Y-23.53 Z-0.50
N2575 G01 X52.49 Y-23.34 Z-0.50
N2580 G01 X52.57 Y-23.12 Z-0.50
N2585 G01 X52.63 Y-22.86 Z-0.50
N2590 G01 X53.35 Y-22.96 Z-0.50
N2595 G01 X53.27 Y-23.32 Z-0.50
N2600 G01 X53.14 Y-23.63 Z-0.50
N2605 G01 X53.06 Y-23.77 Z-0.50
N2610 G01 X52.97 Y-23.90 Z-0.50
N2615 G01 X52.86 Y-24.02 Z-0.50
N2620 G01 X52.74 Y-24.14 Z-0.50
N2625 G01 X52.48 Y-24.32 Z-0.50
N2630 G01 X52.34 Y-24.39 Z-0.50
N2635 G01 X52.19 Y-24.45 Z-0.50
N2640 G01 X51.87 Y-24.53 Z-0.50
N2645 G01 X51.53 Y-24.56 Z-0.50
N2650 G01 X51.31 Y-24.55 Z-0.50
N2655 G01 X51.10 Y-24.52 Z-0.50
N2660 G01 X50.90 Y-24.48 Z-0.50
N2665 G01 X50.72 Y-24.41 Z-0.50
N2670 G01 X50.54 Y-24.33 Z-0.50
N2675 G01 X50.38 Y-24.23 Z-0.50
N2680 G01 X50.23 Y-24.11 Z-0.50
N2685 G01 X50.08 Y-23.97 Z-0.50
N2690 G01 X49.96 Y-23.82 Z-0.50
N2695 G01 X49.84 Y-23.65 Z-0.50
N2700 G01 X49.75 Y-23.46 Z-0.50
N2705 G01 X49.67 Y-23.26 Z-0.50
N2710 G01 X49.61 Y-23.04 Z-0.50
N2715 G01 X49.57 Y-22.80 Z-0.50
N2720 G01 X49.54 Y-22.55 Z-0.50
N2725 G01 X49.54 Y-22.29 Z-0.50
N2730 G01 X49.55 Y-21.94 Z-0.50
N2735 G01 X49.60 Y-21.62 Z-0.50
N2740 G01 X49.67 Y-21.32 Z-0.50
N2745 G00 X49.67 Y-21.32 Z60.00
N2750 G00 X53.99 Y-24.47 Z60.00
N2755 G00 X53.99 Y-24.47 Z3.00
N2760 G01 X53.99 Y-24.47 Z-0.50 F30.0
N2765 G01 X53.99 Y-18.41 Z-0.50 F60.0
N2770 G01 X54.73 Y-18.41 Z-0.50
N2775 G01 X54.73 Y-20.59 Z-0.50
N2780 G01 X54.87 Y-20.44 Z-0.50
N2785 G01 X55.01 Y-20.32 Z-0.50
N2790 G01 X55.16 Y-20.22 Z-0.50
N2795 G01 X55.32 Y-20.13 Z-0.50
N2800 G01 X55.49 Y-20.07 Z-0.50
N2805 G01 X55.67 Y-20.02 Z-0.50
N2810 G01 X55.85 Y-19.99 Z-0.50
N2815 G01 X56.04 Y-19.98 Z-0.50
N2820 G01 X56.28 Y-19.99 Z-0.50
N2825 G01 X56.50 Y-20.03 Z-0.50
N2830 G01 X56.70 Y-20.09 Z-0.50
N2835 G01 X56.89 Y-20.17 Z-0.50
N2840 G01 X57.05 Y-20.28 Z-0.50
N2845 G01 X57.19 Y-20.40 Z-0.50
N2850 G01 X57.31 Y-20.54 Z-0.50
N2855 G01 X57.40 Y-20.70 Z-0.50
N2860 G01 X57.47 Y-20.89 Z-0.50
N2865 G01 X57.52 Y-21.12 Z-0.50
N2870 G01 X57.54 Y-21.38 Z-0.50
N2875 G01 X57.55 Y-21.69 Z-0.50
N2880 G01 X57.55 Y-24.47 Z-0.50
N2885 G01 X56.81 Y-24.47 Z-0.50
N2890 G01 X56.81 Y-21.69 Z-0.50
N2895 G01 X56.79 Y-21.43 Z-0.50
N2900 G01 X56.75 Y-21.21 Z-0.50
N2905 G01 X56.67 Y-21.02 Z-0.50
N2910 G01 X56.57 Y-20.88 Z-0.50
N2915 G01 X56.44 Y-20.77 Z-0.50
N2920 G01 X56.28 Y-20.69 Z-0.50
N2925 G01 X56.10 Y-20.64 Z-0.50
N2930 G01 X55.89 Y-20.62 Z-0.50
N2935 G01 X55.73 Y-20.63 Z-0.50
N2940 G01 X55.57 Y-20.67 Z-0.50
N2945 G01 X55.42 Y-20.72 Z-0.50
N2950 G01 X55.27 Y-20.79 Z-0.50
N2955 G01 X55.14 Y-20.89 Z-0.50
N2960 G01 X55.02 Y-21.00 Z-0.50
N2965 G01 X54.93 Y-21.12 Z-0.50
N2970 G01 X54.86 Y-21.26 Z-0.50
N2975 G01 X54.80 Y-21.42 Z-0.50
N2980 G01 X54.77 Y-21.61 Z-0.50
N2985 G01 X54.74 Y-21.82 Z-0.50
N2990 G01 X54.73 Y-22.07 Z-0.50
N2995 G01 X54.73 Y-24.47 Z-0.50
N3000 G01 X53.99 Y-24.47 Z-0.50
N3005 G00 X53.99 Y-24.47 Z60.00
N3010 G00 X58.70 Y-24.47 Z60.00
N3015 G00 X58.70 Y-24.47 Z3.00
N3020 G01 X58.70 Y-24.47 Z-0.50 F30.0
N3025 G01 X58.70 Y-20.07 Z-0.50 F60.0
N3030 G01 X59.37 Y-20.07 Z-0.50
N3035 G01 X59.37 Y-20.70 Z-0.50
N3040 G01 X59.49 Y-20.53 Z-0.50
N3045 G01 X59.64 Y-20.38 Z-0.50
N3050 G01 X59.79 Y-20.26 Z-0.50
N3055 G01 X59.96 Y-20.16 Z-0.50
N3060 G01 X60.14 Y-20.08 Z-0.50
N3065 G01 X60.33 Y-20.02 Z-0.50
N3070 G01 X60.54 Y-19.99 Z-0.50
N3075 G01 X60.76 Y-19.98 Z-0.50
N3080 G01 X60.96 Y-19.99 Z-0.50
N3085 G01 X61.14 Y-20.02 Z-0.50
N3090 G01 X61.32 Y-20.06 Z-0.50
N3095 G01 X61.49 Y-20.12 Z-0.50
N3100 G01 X61.65 Y-20.20 Z-0.50
N3105 G01 X61.78 Y-20.29 Z-0.50
N3110 G01 X61.90 Y-20.39 Z-0.50
N3115 G01 X61.99 Y-20.50 Z-0.50
N3120 G01 X62.07 Y-20.62 Z-0.50
N3125 G01 X62.13 Y-20.75 Z-0.50
N3130 G01 X62.18 Y-20.89 Z-0.50
N3135 G01 X62.22 Y-21.05 Z-0.50
N3140 G01 X62.25 Y-21.33 Z-0.50
N3145 G01 X62.26 Y-21.77 Z-0.50
N3150 G01 X62.26 Y-24.47 Z-0.50
N3155 G01 X61.52 Y-24.47 Z-0.50
N3160 G01 X61.52 Y-21.80 Z-0.50
N3165 G01 X61.50 Y-21.40 Z-0.50
N3170 G01 X61.47 Y-21.24 Z-0.50
N3175 G01 X61.43 Y-21.12 Z-0.50
N3180 G01 X61.38 Y-21.01 Z-0.50
N3185 G01 X61.31 Y-20.92 Z-0.50
N3190 G01 X61.23 Y-20.83 Z-0.50
N3195 G01 X61.12 Y-20.76 Z-0.50
N3200 G01 X61.01 Y-20.70 Z-0.50
N3205 G01 X60.88 Y-20.66 Z-0.50
N3210 G01 X60.75 Y-20.63 Z-0.50
N3215 G01 X60.61 Y-20.62 Z-0.50
N3220 G01 X60.38 Y-20.64 Z-0.50
N3225 G01 X60.16 Y-20.70 Z-0.50
N3230 G01 X59.97 Y-20.79 Z-0.50
N3235 G01 X59.79 Y-20.93 Z-0.50
N3240 G01 X59.71 Y-21.01 Z-0.50
N3245 G01 X59.64 Y-21.11 Z-0.50
N3250 G01 X59.58 Y-21.23 Z-0.50
N3255 G01 X59.53 Y-21.36 Z-0.50
N3260 G01 X59.46 Y-21.68 Z-0.50
N3265 G01 X59.44 Y-22.07 Z-0.50
N3270 G01 X59.44 Y-24.47 Z-0.50
N3275 G01 X58.70 Y-24.47 Z-0.50
N3280 G00 X58.70 Y-24.47 Z60.00
N3285 G00 X63.30 Y-23.26 Z60.00
N3290 G00 X63.30 Y-23.26 Z3.00
N3295 G01 X63.30 Y-23.26 Z-0.50 F30.0
N3300 G01 X63.24 Y-23.04 Z-0.50 F60.0
N3305 G01 X63.20 Y-22.81 Z-0.50
N3310 G01 X63.17 Y-22.57 Z-0.50
N3315 G01 X63.16 Y-22.31 Z-0.50
N3320 G01 X63.17 Y-22.04 Z-0.50
N3325 G01 X63.20 Y-21.79 Z-0.50
N3330 G01 X63.24 Y-21.55 Z-0.50
N3335 G01 X63.30 Y-21.33 Z-0.50
N3340 G01 X63.38 Y-21.12 Z-0.50
N3345 G01 X63.48 Y-20.93 Z-0.50
N3350 G01 X63.60 Y-20.75 Z-0.50
N3355 G01 X63.73 Y-20.59 Z-0.50
N3360 G01 X63.88 Y-20.45 Z-0.50
N3365 G01 X64.04 Y-20.32 Z-0.50
N3370 G01 X64.21 Y-20.22 Z-0.50
N3375 G01 X64.38 Y-20.13 Z-0.50
N3380 G01 X64.57 Y-20.07 Z-0.50
N3385 G01 X64.78 Y-20.02 Z-0.50
N3390 G01 X64.99 Y-19.99 Z-0.50
N3395 G01 X65.21 Y-19.98 Z-0.50
N3400 G01 X65.42 Y-19.99 Z-0.50
N3405 G01 X65.63 Y-20.02 Z-0.50
N3410 G01 X65.82 Y-20.06 Z-0.50
N3415 G01 X66.01 Y-20.13 Z-0.50
N3420 G01 X66.18 Y-20.21 Z-0.50
N3425 G01 X66.34 Y-20.32 Z-0.50
N3430 G01 X66.50 Y-20.44 Z-0.50
N3435 G01 X66.64 Y-20.58 Z-0.50
N3440 G01 X66.77 Y-20.74 Z-0.50
N3445 G01 X66.89 Y-20.91 Z-0.50
N3450 G01 X66.98 Y-21.10 Z-0.50
N3455 G01 X67.06 Y-21.30 Z-0.50
N3460 G01 X67.12 Y-21.52 Z-0.50
N3465 G01 X67.17 Y-21.75 Z-0.50
N3470 G01 X67.19 Y-22.00 Z-0.50
N3475 G01 X67.20 Y-22.26 Z-0.50
N3480 G01 X67.20 Y-22.46 Z-0.50
N3485 G01 X63.92 Y-22.46 Z-0.50
N3490 G01 X63.97 Y-22.80 Z-0.50
N3495 G01 X64.05 Y-23.10 Z-0.50
N3500 G01 X64.17 Y-23.35 Z-0.50
N3505 G01 X64.33 Y-23.57 Z-0.50
N3510 G01 X64.53 Y-23.73 Z-0.50
N3515 G01 X64.75 Y-23.85 Z-0.50
N3520 G01 X64.99 Y-23.93 Z-0.50
N3525 G01 X65.25 Y-23.95 Z-0.50
N3530 G01 X65.45 Y-23.94 Z-0.50
N3535 G01 X65.63 Y-23.90 Z-0.50
N3540 G01 X65.79 Y-23.83 Z-0.50
N3545 G01 X65.95 Y-23.73 Z-0.50
N3550 G01 X66.08 Y-23.61 Z-0.50
N3555 G01 X66.21 Y-23.45 Z-0.50
N3560 G01 X66.31 Y-23.27 Z-0.50
N3565 G01 X66.40 Y-23.04 Z-0.50
N3570 G01 X67.18 Y-23.15 Z-0.50
N3575 G01 X67.07 Y-23.46 Z-0.50
N3580 G01 X66.92 Y-23.74 Z-0.50
N3585 G01 X66.73 Y-23.99 Z-0.50
N3590 G01 X66.50 Y-24.19 Z-0.50
N3595 G01 X66.24 Y-24.35 Z-0.50
N3600 G01 X65.94 Y-24.47 Z-0.50
N3605 G01 X65.61 Y-24.54 Z-0.50
N3610 G01 X65.25 Y-24.56 Z-0.50
N3615 G01 X65.01 Y-24.55 Z-0.50
N3620 G01 X64.79 Y-24.52 Z-0.50
N3625 G01 X64.58 Y-24.48 Z-0.50
N3630 G01 X64.39 Y-24.41 Z-0.50
N3635 G01 X64.20 Y-24.33 Z-0.50
N3640 G01 X64.03 Y-24.23 Z-0.50
N3645 G01 X63.87 Y-24.11 Z-0.50
N3650 G01 X63.73 Y-23.97 Z-0.50
N3655 G01 X63.59 Y-23.81 Z-0.50
N3660 G01 X63.48 Y-23.64 Z-0.50
N3665 G01 X63.38 Y-23.46 Z-0.50
N3670 G01 X63.30 Y-23.26 Z-0.50
N3675 G00 X63.30 Y-23.26 Z60.00
N3680 G00 X63.97 Y-21.85 Z60.00
N3685 G00 X63.97 Y-21.85 Z3.00
N3690 G01 X63.97 Y-21.85 Z-0.50 F30.0
N3695 G01 X66.41 Y-21.85 Z-0.50 F60.0
N3700 G01 X66.38 Y-21.59 Z-0.50
N3705 G01 X66.32 Y-21.37 Z-0.50
N3710 G01 X66.24 Y-21.18 Z-0.50
N3715 G01 X66.13 Y-21.02 Z-0.50
N3720 G01 X65.94 Y-20.83 Z-0.50
N3725 G01 X65.73 Y-20.70 Z-0.50
N3730 G01 X65.48 Y-20.62 Z-0.50
N3735 G01 X65.21 Y-20.59 Z-0.50
N3740 G01 X64.97 Y-20.61 Z-0.50
N3745 G01 X64.74 Y-20.68 Z-0.50
N3750 G01 X64.54 Y-20.78 Z-0.50
N3755 G01 X64.35 Y-20.93 Z-0.50
N3760 G01 X64.20 Y-21.12 Z-0.50
N3765 G01 X64.08 Y-21.33 Z-0.50
N3770 G01 X64.00 Y-21.58 Z-0.50
N3775 G01 X63.97 Y-21.85 Z-0.50
N3780 G00 X63.97 Y-21.85 Z60.00
N3785 G00 X68.12 Y-20.07 Z60.00
N3790 G00 X68.12 Y-20.07 Z3.00
N3795 G01 X68.12 Y-20.07 Z-0.50 F30.0
N3800 G01 X68.86 Y-20.07 Z-0.50 F60.0
N3805 G01 X68.86 Y-24.47 Z-0.50
N3810 G01 X68.12 Y-24.47 Z-0.50
N3815 G01 X68.12 Y-20.07 Z-0.50
N3820 G00 X68.12 Y-20.07 Z60.00
N3825 G00 X68.12 Y-19.25 Z60.00
N3830 G00 X68.12 Y-19.25 Z3.00
N3835 G01 X68.12 Y-19.25 Z-0.50 F30.0
N3840 G01 X68.12 Y-18.41 Z-0.50 F60.0
N3845 G01 X68.86 Y-18.41 Z-0.50
N3850 G01 X68.86 Y-19.25 Z-0.50
N3855 G01 X68.12 Y-19.25 Z-0.50
N3860 G00 X68.12 Y-19.25 Z60.00
N3865 G00 X69.73 Y-21.95 Z60.00
N3870 G00 X69.73 Y-21.95 Z3.00
N3875 G01 X69.73 Y-21.95 Z-0.50 F30.0
N3880 G01 X69.77 Y-21.65 Z-0.50 F60.0
N3885 G01 X69.84 Y-21.36 Z-0.50
N3890 G01 X69.94 Y-21.08 Z-0.50
N3895 G01 X70.06 Y-20.83 Z-0.50
N3900 G01 X70.21 Y-20.61 Z-0.50
N3905 G01 X70.39 Y-20.42 Z-0.50
N3910 G01 X70.59 Y-20.26 Z-0.50
N3915 G01 X70.82 Y-20.14 Z-0.50
N3920 G01 X71.06 Y-20.05 Z-0.50
N3925 G01 X71.31 Y-20.00 Z-0.50
N3930 G01 X71.57 Y-19.98 Z-0.50
N3935 G01 X71.77 Y-19.99 Z-0.50
N3940 G01 X71.95 Y-20.02 Z-0.50
N3945 G01 X72.12 Y-20.07 Z-0.50
N3950 G01 X72.28 Y-20.15 Z-0.50
N3955 G01 X72.43 Y-20.24 Z-0.50
N3960 G01 X72.56 Y-20.34 Z-0.50
N3965 G01 X72.68 Y-20.46 Z-0.50
N3970 G01 X72.78 Y-20.59 Z-0.50
N3975 G01 X72.78 Y-18.41 Z-0.50
N3980 G01 X73.53 Y-18.41 Z-0.50
N3985 G01 X73.53 Y-24.47 Z-0.50
N3990 G01 X72.83 Y-24.47 Z-0.50
N3995 G01 X72.83 Y-23.91 Z-0.50
N4000 G01 X72.72 Y-24.06 Z-0.50
N4005 G01 X72.60 Y-24.19 Z-0.50
N4010 G01 X72.47 Y-24.31 Z-0.50
N4015 G01 X72.32 Y-24.40 Z-0.50
N4020 G01 X72.16 Y-24.47 Z-0.50
N4025 G01 X71.99 Y-24.52 Z-0.50
N4030 G01 X71.80 Y-24.55 Z-0.50
N4035 G01 X71.61 Y-24.56 Z-0.50
N4040 G01 X71.35 Y-24.54 Z-0.50
N4045 G01 X71.10 Y-24.49 Z-0.50
N4050 G01 X70.87 Y-24.40 Z-0.50
N4055 G01 X70.64 Y-24.27 Z-0.50
N4060 G01 X70.43 Y-24.11 Z-0.50
N4065 G01 X70.25 Y-23.93 Z-0.50
N4070 G01 X70.09 Y-23.71 Z-0.50
N4075 G01 X69.96 Y-23.47 Z-0.50
N4080 G01 X69.85 Y-23.20 Z-0.50
N4085 G01 X69.78 Y-22.91 Z-0.50
N4090 G01 X69.73 Y-22.60 Z-0.50
N4095 G01 X69.72 Y-22.27 Z-0.50
N4100 G01 X69.73 Y-21.95 Z-0.50
N4105 G00 X69.73 Y-21.95 Z60.00
N4110 G00 X70.67 Y-21.23 Z60.00
N4115 G00 X70.67 Y-21.23 Z3.00
N4120 G01 X70.67 Y-21.23 Z-0.50 F30.0
N4125 G01 X70.56 Y-21.52 Z-0.50 F60.0
N4130 G01 X70.50 Y-21.87 Z-0.50
N4135 G01 X70.48 Y-22.28 Z-0.50
N4140 G01 X70.50 Y-22.67 Z-0.50
N4145 G01 X70.57 Y-23.01 Z-0.50
N4150 G01 X70.62 Y-23.16 Z-0.50
N4155 G01 X70.68 Y-23.30 Z-0.50
N4160 G01 X70.75 Y-23.42 Z-0.50
N4165 G01 X70.84 Y-23.53 Z-0.50
N4170 G01 X71.02 Y-23.72 Z-0.50
N4175 G01 X71.23 Y-23.85 Z-0.50
N4180 G01 X71.44 Y-23.92 Z-0.50
N4185 G01 X71.68 Y-23.95 Z-0.50
N4190 G01 X71.91 Y-23.93 Z-0.50
N4195 G01 X72.13 Y-23.85 Z-0.50
N4200 G01 X72.33 Y-23.73 Z-0.50
N4205 G01 X72.51 Y-23.55 Z-0.50
N4210 G01 X72.59 Y-23.45 Z-0.50
N4215 G01 X72.66 Y-23.33 Z-0.50
N4220 G01 X72.77 Y-23.05 Z-0.50
N4225 G01 X72.83 Y-22.72 Z-0.50
N4230 G01 X72.85 Y-22.34 Z-0.50
N4235 G01 X72.83 Y-21.92 Z-0.50
N4240 G01 X72.76 Y-21.56 Z-0.50
N4245 G01 X72.71 Y-21.40 Z-0.50
N4250 G01 X72.65 Y-21.26 Z-0.50
N4255 G01 X72.58 Y-21.13 Z-0.50
N4260 G01 X72.50 Y-21.02 Z-0.50
N4265 G01 X72.32 Y-20.83 Z-0.50
N4270 G01 X72.11 Y-20.70 Z-0.50
N4275 G01 X71.89 Y-20.62 Z-0.50
N4280 G01 X71.64 Y-20.60 Z-0.50
N4285 G01 X71.41 Y-20.62 Z-0.50
N4290 G01 X71.19 Y-20.70 Z-0.50
N4295 G01 X70.99 Y-20.82 Z-0.50
N4300 G01 X70.81 Y-21.00 Z-0.50
N4305 G01 X70.74 Y-21.11 Z-0.50
N4310 G01 X70.67 Y-21.23 Z-0.50
N4315 G00 X70.67 Y-21.23 Z60.00
N4320 G00 X74.50 Y-21.79 Z60.00
N4325 G00 X74.50 Y-21.79 Z3.00
N4330 G01 X74.50 Y-21.79 Z-0.50 F30.0
N4335 G01 X74.54 Y-21.55 Z-0.50 F60.0
N4340 G01 X74.60 Y-21.33 Z-0.50
N4345 G01 X74.68 Y-21.12 Z-0.50
N4350 G01 X74.78 Y-20.93 Z-0.50
N4355 G01 X74.90 Y-20.75 Z-0.50
N4360 G01 X75.03 Y-20.59 Z-0.50
N4365 G01 X75.18 Y-20.45 Z-0.50
N4370 G01 X75.34 Y-20.32 Z-0.50
N4375 G01 X75.50 Y-20.22 Z-0.50
N4380 G01 X75.68 Y-20.13 Z-0.50
N4385 G01 X75.87 Y-20.07 Z-0.50
N4390 G01 X76.07 Y-20.02 Z-0.50
N4395 G01 X76.29 Y-19.99 Z-0.50
N4400 G01 X76.51 Y-19.98 Z-0.50
N4405 G01 X76.72 Y-19.99 Z-0.50
N4410 G01 X76.93 Y-20.02 Z-0.50
N4415 G01 X77.12 Y-20.06 Z-0.50
N4420 G01 X77.31 Y-20.13 Z-0.50
N4425 G01 X77.48 Y-20.21 Z-0.50
N4430 G01 X77.64 Y-20.32 Z-0.50
N4435 G01 X77.80 Y-20.44 Z-0.50
N4440 G01 X77.94 Y-20.58 Z-0.50
N4445 G01 X78.07 Y-20.74 Z-0.50
N4450 G01 X78.19 Y-20.91 Z-0.50
N4455 G01 X78.28 Y-21.10 Z-0.50
N4460 G01 X78.36 Y-21.30 Z-0.50
N4465 G01 X78.42 Y-21.52 Z-0.50
N4470 G01 X78.46 Y-21.75 Z-0.50
N4475 G01 X78.49 Y-22.00 Z-0.50
N4480 G01 X78.50 Y-22.26 Z-0.50
N4485 G01 X78.50 Y-22.46 Z-0.50
N4490 G01 X75.22 Y-22.46 Z-0.50
N4495 G01 X75.26 Y-22.80 Z-0.50
N4500 G01 X75.35 Y-23.10 Z-0.50
N4505 G01 X75.47 Y-23.35 Z-0.50
N4510 G01 X75.63 Y-23.57 Z-0.50
N4515 G01 X75.83 Y-23.73 Z-0.50
N4520 G01 X76.04 Y-23.85 Z-0.50
N4525 G01 X76.28 Y-23.93 Z-0.50
N4530 G01 X76.55 Y-23.95 Z-0.50
N4535 G01 X76.74 Y-23.94 Z-0.50
N4540 G01 X76.93 Y-23.90 Z-0.50
N4545 G01 X77.09 Y-23.83 Z-0.50
N4550 G01 X77.25 Y-23.73 Z-0.50
N4555 G01 X77.38 Y-23.61 Z-0.50
N4560 G01 X77.50 Y-23.45 Z-0.50
N4565 G01 X77.61 Y-23.27 Z-0.50
N4570 G01 X77.70 Y-23.04 Z-0.50
N4575 G01 X78.47 Y-23.15 Z-0.50
N4580 G01 X78.36 Y-23.46 Z-0.50
N4585 G01 X78.22 Y-23.74 Z-0.50
N4590 G01 X78.03 Y-23.99 Z-0.50
N4595 G01 X77.80 Y-24.19 Z-0.50
N4600 G01 X77.54 Y-24.35 Z-0.50
N4605 G01 X77.24 Y-24.47 Z-0.50
N4610 G01 X76.91 Y-24.54 Z-0.50
N4615 G01 X76.55 Y-24.56 Z-0.50
N4620 G01 X76.31 Y-24.55 Z-0.50
N4625 G01 X76.09 Y-24.52 Z-0.50
N4630 G01 X75.88 Y-24.48 Z-0.50
N4635 G01 X75.69 Y-24.41 Z-0.50
N4640 G01 X75.50 Y-24.33 Z-0.50
N4645 G01 X75.33 Y-24.23 Z-0.50
N4650 G01 X75.17 Y-24.11 Z-0.50
N4655 G01 X75.02 Y-23.97 Z-0.50
N4660 G01 X74.89 Y-23.81 Z-0.50
N4665 G01 X74.78 Y-23.64 Z-0.50
N4670 G01 X74.68 Y-23.46 Z-0.50
N4675 G01 X74.60 Y-23.26 Z-0.50
N4680 G01 X74.54 Y-23.04 Z-0.50
N4685 G01 X74.50 Y-22.81 Z-0.50
N4690 G01 X74.47 Y-22.57 Z-0.50
N4695 G01 X74.46 Y-22.31 Z-0.50
N4700 G01 X74.47 Y-22.04 Z-0.50
N4705 G01 X74.50 Y-21.79 Z-0.50
N4710 G00 X74.50 Y-21.79 Z60.00
N4715 G00 X75.27 Y-21.85 Z60.00
N4720 G00 X75.27 Y-21.85 Z3.00
N4725 G01 X75.27 Y-21.85 Z-0.50 F30.0
N4730 G01 X77.71 Y-21.85 Z-0.50 F60.0
N4735 G01 X77.68 Y-21.59 Z-0.50
N4740 G01 X77.62 Y-21.37 Z-0.50
N4745 G01 X77.54 Y-21.18 Z-0.50
N4750 G01 X77.43 Y-21.02 Z-0.50
N4755 G01 X77.24 Y-20.83 Z-0.50
N4760 G01 X77.02 Y-20.70 Z-0.50
N4765 G01 X76.78 Y-20.62 Z-0.50
N4770 G01 X76.51 Y-20.59 Z-0.50
N4775 G01 X76.27 Y-20.61 Z-0.50
N4780 G01 X76.04 Y-20.68 Z-0.50
N4785 G01 X75.83 Y-20.78 Z-0.50
N4790 G01 X75.65 Y-20.93 Z-0.50
N4795 G01 X75.50 Y-21.12 Z-0.50
N4800 G01 X75.38 Y-21.33 Z-0.50
N4805 G01 X75.30 Y-21.58 Z-0.50
N4810 G01 X75.27 Y-21.85 Z-0.50
N4815 G00 X75.27 Y-21.85 Z60.00
N4820 G00 X79.41 Y-20.07 Z60.00
N4825 G00 X79.41 Y-20.07 Z3.00
N4830 G01 X79.41 Y-20.07 Z-0.50 F30.0
N4835 G01 X80.08 Y-20.07 Z-0.50 F60.0
N4840 G01 X80.08 Y-20.75 Z-0.50
N4845 G01 X80.20 Y-20.53 Z-0.50
N4850 G01 X80.32 Y-20.36 Z-0.50
N4855 G01 X80.44 Y-20.22 Z-0.50
N4860 G01 X80.55 Y-20.13 Z-0.50
N4865 G01 X80.66 Y-20.06 Z-0.50
N4870 G01 X80.78 Y-20.02 Z-0.50
N4875 G01 X80.90 Y-19.99 Z-0.50
N4880 G01 X81.03 Y-19.98 Z-0.50
N4885 G01 X81.22 Y-19.99 Z-0.50
N4890 G01 X81.41 Y-20.04 Z-0.50
N4895 G01 X81.60 Y-20.11 Z-0.50
N4900 G01 X81.79 Y-20.22 Z-0.50
N4905 G01 X81.53 Y-20.90 Z-0.50
N4910 G01 X81.39 Y-20.84 Z-0.50
N4915 G01 X81.26 Y-20.79 Z-0.50
N4920 G01 X81.12 Y-20.76 Z-0.50
N4925 G01 X80.99 Y-20.75 Z-0.50
N4930 G01 X80.87 Y-20.76 Z-0.50
N4935 G01 X80.76 Y-20.79 Z-0.50
N4940 G01 X80.65 Y-20.83 Z-0.50
N4945 G01 X80.55 Y-20.90 Z-0.50
N4950 G01 X80.46 Y-20.98 Z-0.50
N4955 G01 X80.39 Y-21.07 Z-0.50
N4960 G01 X80.32 Y-21.18 Z-0.50
N4965 G01 X80.28 Y-21.30 Z-0.50
N4970 G01 X80.22 Y-21.51 Z-0.50
N4975 G01 X80.18 Y-21.72 Z-0.50
N4980 G01 X80.16 Y-21.94 Z-0.50
N4985 G01 X80.15 Y-22.17 Z-0.50
N4990 G01 X80.15 Y-24.47 Z-0.50
N4995 G01 X79.41 Y-24.47 Z-0.50
N5000 G01 X79.41 Y-20.07 Z-0.50
N5005 G00 X79.41 Y-20.07 Z60.00
N5010 G00 X39.62 Y-23.62 Z60.00
N5015 G00 X39.62 Y-23.62 Z3.00
N5020 G01 X39.62 Y-23.62 Z-0.50 F30.0
N5025 G01 X40.46 Y-23.62 Z-0.50 F60.0
N5030 G01 X40.46 Y-24.47 Z-0.50
N5035 G01 X39.62 Y-24.47 Z-0.50
N5040 G01 X39.62 Y-23.62 Z-0.50
N5045 G00 X39.62 Y-23.62 Z60.00
N5050 G00 X34.81 Y-19.12 Z60.00
N5055 G00 X34.81 Y-19.12 Z3.00
N5060 G01 X34.81 Y-19.12 Z-0.50 F30.0
N5065 G01 X34.81 Y-18.41 Z-0.50 F60.0
N5070 G01 X39.61 Y-18.41 Z-0.50
N5075 G01 X39.61 Y-19.12 Z-0.50
N5080 G01 X37.61 Y-19.12 Z-0.50
N5085 G01 X37.61 Y-24.47 Z-0.50
N5090 G01 X36.81 Y-24.47 Z-0.50
N5095 G01 X36.81 Y-19.12 Z-0.50
N5100 G01 X34.81 Y-19.12 Z-0.50
N5105 G00 X34.81 Y-19.12 Z60.00
N5110 G00 X30.33 Y-19.98 Z60.00
N5115 G00 X30.33 Y-19.98 Z3.00
N5120 G01 X30.33 Y-19.98 Z-0.50 F30.0
N5125 G01 X30.52 Y-19.99 Z-0.50 F60.0
N5130 G01 X30.71 Y-20.02 Z-0.50
N5135 G01 X30.89 Y-20.06 Z-0.50
N5140 G01 X31.06 Y-20.12 Z-0.50
N5145 G01 X31.21 Y-20.20 Z-0.50
N5150 G01 X31.35 Y-20.29 Z-0.50
N5155 G01 X31.46 Y-20.39 Z-0.50
N5160 G01 X31.55 Y-20.50 Z-0.50
N5165 G01 X31.63 Y-20.62 Z-0.50
N5170 G01 X31.69 Y-20.75 Z-0.50
N5175 G01 X31.75 Y-20.89 Z-0.50
N5180 G01 X31.79 Y-21.05 Z-0.50
N5185 G01 X31.82 Y-21.33 Z-0.50
N5190 G01 X31.83 Y-21.77 Z-0.50
N5195 G01 X31.83 Y-24.47 Z-0.50
N5200 G01 X31.08 Y-24.47 Z-0.50
N5205 G01 X31.08 Y-21.80 Z-0.50
N5210 G01 X31.06 Y-21.40 Z-0.50
N5215 G01 X31.03 Y-21.24 Z-0.50
N5220 G01 X31.00 Y-21.12 Z-0.50
N5225 G01 X30.94 Y-21.01 Z-0.50
N5230 G01 X30.88 Y-20.92 Z-0.50
N5235 G01 X30.79 Y-20.83 Z-0.50
N5240 G01 X30.69 Y-20.76 Z-0.50
N5245 G01 X30.57 Y-20.70 Z-0.50
N5250 G01 X30.45 Y-20.66 Z-0.50
N5255 G01 X30.31 Y-20.63 Z-0.50
N5260 G01 X30.17 Y-20.62 Z-0.50
N5265 G01 X29.94 Y-20.64 Z-0.50
N5270 G01 X29.73 Y-20.70 Z-0.50
N5275 G01 X29.53 Y-20.79 Z-0.50
N5280 G01 X29.35 Y-20.93 Z-0.50
N5285 G01 X29.27 Y-21.01 Z-0.50
N5290 G01 X29.20 Y-21.11 Z-0.50
N5295 G01 X29.14 Y-21.23 Z-0.50
N5300 G01 X29.09 Y-21.36 Z-0.50
N5305 G01 X29.03 Y-21.68 Z-0.50
N5310 G01 X29.01 Y-22.07 Z-0.50
N5315 G01 X29.01 Y-24.47 Z-0.50
N5320 G01 X28.26 Y-24.47 Z-0.50
N5325 G01 X28.26 Y-20.07 Z-0.50
N5330 G01 X28.93 Y-20.07 Z-0.50
N5335 G01 X28.93 Y-20.70 Z-0.50
N5340 G01 X29.06 Y-20.53 Z-0.50
N5345 G01 X29.20 Y-20.38 Z-0.50
N5350 G01 X29.35 Y-20.26 Z-0.50
N5355 G01 X29.52 Y-20.16 Z-0.50
N5360 G01 X29.70 Y-20.08 Z-0.50
N5365 G01 X29.90 Y-20.02 Z-0.50
N5370 G01 X30.11 Y-19.99 Z-0.50
N5375 G01 X30.33 Y-19.98 Z-0.50
N5380 G00 X30.33 Y-19.98 Z60.00
N5385 G00 X24.15 Y-21.58 Z60.00
N5390 G00 X24.15 Y-21.58 Z3.00
N5395 G01 X24.15 Y-21.58 Z-0.50 F30.0
N5400 G01 X24.11 Y-21.85 Z-0.50 F60.0
N5405 G01 X26.56 Y-21.85 Z-0.50
N5410 G01 X26.52 Y-21.59 Z-0.50
N5415 G01 X26.46 Y-21.37 Z-0.50
N5420 G01 X26.38 Y-21.18 Z-0.50
N5425 G01 X26.28 Y-21.02 Z-0.50
N5430 G01 X26.09 Y-20.83 Z-0.50
N5435 G01 X25.87 Y-20.70 Z-0.50
N5440 G01 X25.63 Y-20.62 Z-0.50
N5445 G01 X25.36 Y-20.59 Z-0.50
N5450 G01 X25.11 Y-20.61 Z-0.50
N5455 G01 X24.89 Y-20.68 Z-0.50
N5460 G01 X24.68 Y-20.78 Z-0.50
N5465 G01 X24.50 Y-20.93 Z-0.50
N5470 G01 X24.34 Y-21.12 Z-0.50
N5475 G01 X24.23 Y-21.33 Z-0.50
N5480 G01 X24.15 Y-21.58 Z-0.50
N5485 G00 X24.15 Y-21.58 Z60.00
N5490 G00 X23.45 Y-21.33 Z60.00
N5495 G00 X23.45 Y-21.33 Z3.00
N5500 G01 X23.45 Y-21.33 Z-0.50 F30.0
N5505 G01 X23.53 Y-21.12 Z-0.50 F60.0
N5510 G01 X23.63 Y-20.93 Z-0.50
N5515 G01 X23.74 Y-20.75 Z-0.50
N5520 G01 X23.88 Y-20.59 Z-0.50
N5525 G01 X24.02 Y-20.45 Z-0.50
N5530 G01 X24.18 Y-20.32 Z-0.50
N5535 G01 X24.35 Y-20.22 Z-0.50
N5540 G01 X24.53 Y-20.13 Z-0.50
N5545 G01 X24.72 Y-20.07 Z-0.50
N5550 G01 X24.92 Y-20.02 Z-0.50
N5555 G01 X25.13 Y-19.99 Z-0.50
N5560 G01 X25.35 Y-19.98 Z-0.50
N5565 G01 X25.57 Y-19.99 Z-0.50
N5570 G01 X25.77 Y-20.02 Z-0.50
N5575 G01 X25.97 Y-20.06 Z-0.50
N5580 G01 X26.15 Y-20.13 Z-0.50
N5585 G01 X26.33 Y-20.21 Z-0.50
N5590 G01 X26.49 Y-20.32 Z-0.50
N5595 G01 X26.64 Y-20.44 Z-0.50
N5600 G01 X26.79 Y-20.58 Z-0.50
N5605 G01 X26.92 Y-20.74 Z-0.50
N5610 G01 X27.03 Y-20.91 Z-0.50
N5615 G01 X27.13 Y-21.10 Z-0.50
N5620 G01 X27.21 Y-21.30 Z-0.50
N5625 G01 X27.27 Y-21.52 Z-0.50
N5630 G01 X27.31 Y-21.75 Z-0.50
N5635 G01 X27.34 Y-22.00 Z-0.50
N5640 G01 X27.35 Y-22.26 Z-0.50
N5645 G01 X27.34 Y-22.46 Z-0.50
N5650 G01 X24.07 Y-22.46 Z-0.50
N5655 G01 X24.11 Y-22.80 Z-0.50
N5660 G01 X24.19 Y-23.10 Z-0.50
N5665 G01 X24.32 Y-23.35 Z-0.50
N5670 G01 X24.48 Y-23.57 Z-0.50
N5675 G01 X24.67 Y-23.73 Z-0.50
N5680 G01 X24.89 Y-23.85 Z-0.50
N5685 G01 X25.13 Y-23.93 Z-0.50
N5690 G01 X25.39 Y-23.95 Z-0.50
N5695 G01 X25.59 Y-23.94 Z-0.50
N5700 G01 X25.77 Y-23.90 Z-0.50
N5705 G01 X25.94 Y-23.83 Z-0.50
N5710 G01 X26.09 Y-23.73 Z-0.50
N5715 G01 X26.23 Y-23.61 Z-0.50
N5720 G01 X26.35 Y-23.45 Z-0.50
N5725 G01 X26.46 Y-23.27 Z-0.50
N5730 G01 X26.55 Y-23.04 Z-0.50
N5735 G01 X27.32 Y-23.15 Z-0.50
N5740 G01 X27.21 Y-23.46 Z-0.50
N5745 G01 X27.06 Y-23.74 Z-0.50
N5750 G01 X26.88 Y-23.99 Z-0.50
N5755 G01 X26.65 Y-24.19 Z-0.50
N5760 G01 X26.39 Y-24.35 Z-0.50
N5765 G01 X26.09 Y-24.47 Z-0.50
N5770 G01 X25.76 Y-24.54 Z-0.50
N5775 G01 X25.39 Y-24.56 Z-0.50
N5780 G01 X25.16 Y-24.55 Z-0.50
N5785 G01 X24.94 Y-24.52 Z-0.50
N5790 G01 X24.73 Y-24.48 Z-0.50
N5795 G01 X24.53 Y-24.41 Z-0.50
N5800 G01 X24.35 Y-24.33 Z-0.50
N5805 G01 X24.18 Y-24.23 Z-0.50
N5810 G01 X24.02 Y-24.11 Z-0.50
N5815 G01 X23.87 Y-23.97 Z-0.50
N5820 G01 X23.74 Y-23.81 Z-0.50
N5825 G01 X23.62 Y-23.64 Z-0.50
N5830 G01 X23.53 Y-23.46 Z-0.50
N5835 G01 X23.45 Y-23.26 Z-0.50
N5840 G01 X23.39 Y-23.04 Z-0.50
N5845 G01 X23.34 Y-22.81 Z-0.50
N5850 G01 X23.32 Y-22.57 Z-0.50
N5855 G01 X23.31 Y-22.31 Z-0.50
N5860 G01 X23.32 Y-22.04 Z-0.50
N5865 G01 X23.34 Y-21.79 Z-0.50
N5870 G01 X23.39 Y-21.55 Z-0.50
N5875 G01 X23.45 Y-21.33 Z-0.50
N5880 G00 X23.45 Y-21.33 Z60.00
N5885 G00 X18.86 Y-20.07 Z60.00
N5890 G00 X18.86 Y-20.07 Z3.00
N5895 G01 X18.86 Y-20.07 Z-0.50 F30.0
N5900 G01 X19.66 Y-20.07 Z-0.50 F60.0
N5905 G01 X20.60 Y-22.70 Z-0.50
N5910 G01 X20.75 Y-23.14 Z-0.50
N5915 G01 X20.88 Y-23.59 Z-0.50
N5920 G01 X21.00 Y-23.21 Z-0.50
N5925 G01 X21.16 Y-22.75 Z-0.50
N5930 G01 X22.14 Y-20.07 Z-0.50
N5935 G01 X22.90 Y-20.07 Z-0.50
N5940 G01 X21.24 Y-24.47 Z-0.50
N5945 G01 X20.52 Y-24.47 Z-0.50
N5950 G01 X18.86 Y-20.07 Z-0.50
N5955 G00 X18.86 Y-20.07 Z60.00
N5960 G00 X13.50 Y-22.52 Z60.00
N5965 G00 X13.50 Y-22.52 Z3.00
N5970 G01 X13.50 Y-22.52 Z-0.50 F30.0
N5975 G01 X14.26 Y-22.45 Z-0.50 F60.0
N5980 G01 X14.29 Y-22.67 Z-0.50
N5985 G01 X14.35 Y-22.87 Z-0.50
N5990 G01 X14.42 Y-23.05 Z-0.50
N5995 G01 X14.51 Y-23.20 Z-0.50
N6000 G01 X14.62 Y-23.34 Z-0.50
N6005 G01 X14.76 Y-23.47 Z-0.50
N6010 G01 X14.92 Y-23.58 Z-0.50
N6015 G01 X15.12 Y-23.68 Z-0.50
N6020 G01 X15.33 Y-23.76 Z-0.50
N6025 G01 X15.56 Y-23.81 Z-0.50
N6030 G01 X15.79 Y-23.85 Z-0.50
N6035 G01 X16.05 Y-23.86 Z-0.50
N6040 G01 X16.27 Y-23.85 Z-0.50
N6045 G01 X16.48 Y-23.82 Z-0.50
N6050 G01 X16.67 Y-23.78 Z-0.50
N6055 G01 X16.86 Y-23.72 Z-0.50
N6060 G01 X17.02 Y-23.65 Z-0.50
N6065 G01 X17.16 Y-23.56 Z-0.50
N6070 G01 X17.28 Y-23.46 Z-0.50
N6075 G01 X17.38 Y-23.34 Z-0.50
N6080 G01 X17.45 Y-23.22 Z-0.50
N6085 G01 X17.51 Y-23.09 Z-0.50
N6090 G01 X17.54 Y-22.96 Z-0.50
N6095 G01 X17.55 Y-22.82 Z-0.50
N6100 G01 X17.54 Y-22.69 Z-0.50
N6105 G01 X17.51 Y-22.56 Z-0.50
N6110 G01 X17.46 Y-22.44 Z-0.50
N6115 G01 X17.39 Y-22.33 Z-0.50
N6120 G01 X17.29 Y-22.23 Z-0.50
N6125 G01 X17.17 Y-22.13 Z-0.50
N6130 G01 X17.02 Y-22.05 Z-0.50
N6135 G01 X16.84 Y-21.97 Z-0.50
N6140 G01 X16.45 Y-21.85 Z-0.50
N6145 G01 X15.76 Y-21.68 Z-0.50
N6150 G01 X15.05 Y-21.48 Z-0.50
N6155 G01 X14.79 Y-21.39 Z-0.50
N6160 G01 X14.59 Y-21.30 Z-0.50
N6165 G01 X14.39 Y-21.18 Z-0.50
N6170 G01 X14.21 Y-21.04 Z-0.50
N6175 G01 X14.06 Y-20.89 Z-0.50
N6180 G01 X13.94 Y-20.73 Z-0.50
N6185 G01 X13.85 Y-20.56 Z-0.50
N6190 G01 X13.79 Y-20.37 Z-0.50
N6195 G01 X13.75 Y-20.18 Z-0.50
N6200 G01 X13.73 Y-19.98 Z-0.50
N6205 G01 X13.75 Y-19.75 Z-0.50
N6210 G01 X13.80 Y-19.53 Z-0.50
N6215 G01 X13.88 Y-19.32 Z-0.50
N6220 G01 X13.99 Y-19.12 Z-0.50
N6225 G01 X14.14 Y-18.93 Z-0.50
N6230 G01 X14.31 Y-18.77 Z-0.50
N6235 G01 X14.52 Y-18.63 Z-0.50
N6240 G01 X14.75 Y-18.51 Z-0.50
N6245 G01 X15.01 Y-18.42 Z-0.50
N6250 G01 X15.28 Y-18.36 Z-0.50
N6255 G01 X15.57 Y-18.32 Z-0.50
N6260 G01 X15.87 Y-18.30 Z-0.50
N6265 G01 X16.19 Y-18.32 Z-0.50
N6270 G01 X16.50 Y-18.36 Z-0.50
N6275 G01 X16.79 Y-18.43 Z-0.50
N6280 G01 X17.05 Y-18.52 Z-0.50
N6285 G01 X17.30 Y-18.64 Z-0.50
N6290 G01 X17.51 Y-18.79 Z-0.50
N6295 G01 X17.69 Y-18.96 Z-0.50
N6300 G01 X17.85 Y-19.16 Z-0.50
N6305 G01 X17.97 Y-19.38 Z-0.50
N6310 G01 X18.06 Y-19.61 Z-0.50
N6315 G01 X18.12 Y-19.86 Z-0.50
N6320 G01 X18.14 Y-20.12 Z-0.50
N6325 G01 X17.37 Y-20.17 Z-0.50
N6330 G01 X17.32 Y-19.91 Z-0.50
N6335 G01 X17.24 Y-19.67 Z-0.50
N6340 G01 X17.11 Y-19.47 Z-0.50
N6345 G01 X16.95 Y-19.31 Z-0.50
N6350 G01 X16.75 Y-19.18 Z-0.50
N6355 G01 X16.51 Y-19.09 Z-0.50
N6360 G01 X16.22 Y-19.03 Z-0.50
N6365 G01 X15.90 Y-19.01 Z-0.50
N6370 G01 X15.56 Y-19.03 Z-0.50
N6375 G01 X15.27 Y-19.08 Z-0.50
N6380 G01 X15.03 Y-19.16 Z-0.50
N6385 G01 X14.84 Y-19.28 Z-0.50
N6390 G01 X14.69 Y-19.42 Z-0.50
N6395 G01 X14.59 Y-19.58 Z-0.50
N6400 G01 X14.52 Y-19.74 Z-0.50
N6405 G01 X14.50 Y-19.92 Z-0.50
N6410 G01 X14.52 Y-20.08 Z-0.50
N6415 G01 X14.56 Y-20.22 Z-0.50
N6420 G01 X14.64 Y-20.35 Z-0.50
N6425 G01 X14.74 Y-20.46 Z-0.50
N6430 G01 X14.90 Y-20.57 Z-0.50
N6435 G01 X15.16 Y-20.68 Z-0.50
N6440 G01 X15.51 Y-20.78 Z-0.50
N6445 G01 X15.95 Y-20.89 Z-0.50
N6450 G01 X16.77 Y-21.10 Z-0.50
N6455 G01 X17.07 Y-21.19 Z-0.50
N6460 G01 X17.29 Y-21.28 Z-0.50
N6465 G01 X17.54 Y-21.41 Z-0.50
N6470 G01 X17.75 Y-21.56 Z-0.50
N6475 G01 X17.93 Y-21.72 Z-0.50
N6480 G01 X18.07 Y-21.90 Z-0.50
N6485 G01 X18.18 Y-22.09 Z-0.50
N6490 G01 X18.26 Y-22.30 Z-0.50
N6495 G01 X18.31 Y-22.52 Z-0.50
N6500 G01 X18.32 Y-22.76 Z-0.50
N6505 G01 X18.30 Y-23.00 Z-0.50
N6510 G01 X18.25 Y-23.23 Z-0.50
N6515 G01 X18.17 Y-23.45 Z-0.50
N6520 G01 X18.04 Y-23.67 Z-0.50
N6525 G01 X17.89 Y-23.87 Z-0.50
N6530 G01 X17.71 Y-24.05 Z-0.50
N6535 G01 X17.49 Y-24.20 Z-0.50
N6540 G01 X17.25 Y-24.33 Z-0.50
N6545 G01 X16.98 Y-24.44 Z-0.50
N6550 G01 X16.70 Y-24.51 Z-0.50
N6555 G01 X16.40 Y-24.55 Z-0.50
N6560 G01 X16.08 Y-24.57 Z-0.50
N6565 G01 X15.69 Y-24.55 Z-0.50
N6570 G01 X15.33 Y-24.51 Z-0.50
N6575 G01 X15.00 Y-24.43 Z-0.50
N6580 G01 X14.71 Y-24.33 Z-0.50
N6585 G01 X14.44 Y-24.19 Z-0.50
N6590 G01 X14.21 Y-24.03 Z-0.50
N6595 G01 X14.01 Y-23.83 Z-0.50
N6600 G01 X13.84 Y-23.61 Z-0.50
N6605 G01 X13.70 Y-23.36 Z-0.50
N6610 G01 X13.59 Y-23.10 Z-0.50
N6615 G01 X13.53 Y-22.82 Z-0.50
N6620 G01 X13.50 Y-22.52 Z-0.50
N6625 G00 X13.50 Y-22.52 Z60.00
N6630 G00 X9.98 Y-21.59 Z60.00
N6635 G00 X9.98 Y-21.59 Z3.00
N6640 G01 X9.98 Y-21.59 Z-0.50 F30.0
N6645 G01 X9.96 Y-22.06 Z-0.50 F60.0
N6650 G01 X9.89 Y-22.52 Z-0.50
N6655 G01 X9.78 Y-22.96 Z-0.50
N6660 G01 X9.62 Y-23.38 Z-0.50
N6665 G01 X9.44 Y-23.78 Z-0.50
N6670 G01 X9.21 Y-24.16 Z-0.50
N6675 G01 X8.95 Y-24.52 Z-0.50
N6680 G01 X8.66 Y-24.84 Z-0.50
N6685 G01 X8.34 Y-25.14 Z-0.50
N6690 G01 X7.99 Y-25.41 Z-0.50
N6695 G01 X7.62 Y-25.64 Z-0.50
N6700 G01 X7.23 Y-25.83 Z-0.50
N6705 G01 X6.82 Y-25.99 Z-0.50
N6710 G01 X6.39 Y-26.10 Z-0.50
N6715 G01 X5.94 Y-26.17 Z-0.50
N6720 G01 X5.48 Y-26.19 Z-0.50
N6725 G01 X5.02 Y-26.17 Z-0.50
N6730 G01 X4.57 Y-26.10 Z-0.50
N6735 G01 X4.14 Y-25.99 Z-0.50
N6740 G01 X3.73 Y-25.83 Z-0.50
N6745 G01 X3.33 Y-25.64 Z-0.50
N6750 G01 X2.96 Y-25.41 Z-0.50
N6755 G01 X2.62 Y-25.14 Z-0.50
N6760 G01 X2.30 Y-24.84 Z-0.50
N6765 G01 X2.01 Y-24.52 Z-0.50
N6770 G01 X1.75 Y-24.16 Z-0.50
N6775 G01 X1.52 Y-23.78 Z-0.50
N6780 G01 X1.33 Y-23.38 Z-0.50
N6785 G01 X1.18 Y-22.96 Z-0.50
N6790 G01 X1.07 Y-22.52 Z-0.50
N6795 G01 X1.00 Y-22.06 Z-0.50
N6800 G01 X0.98 Y-21.59 Z-0.50
N6805 G01 X1.00 Y-21.12 Z-0.50
N6810 G01 X1.07 Y-20.66 Z-0.50
N6815 G01 X1.18 Y-20.22 Z-0.50
N6820 G01 X1.33 Y-19.80 Z-0.50
N6825 G01 X1.52 Y-19.39 Z-0.50
N6830 G01 X1.75 Y-19.01 Z-0.50
N6835 G01 X2.01 Y-18.66 Z-0.50
N6840 G01 X2.30 Y-18.33 Z-0.50
N6845 G01 X2.62 Y-18.04 Z-0.50
N6850 G01 X2.96 Y-17.77 Z-0.50
N6855 G01 X3.33 Y-17.54 Z-0.50
N6860 G01 X3.73 Y-17.35 Z-0.50
N6865 G01 X4.14 Y-17.19 Z-0.50
N6870 G01 X4.57 Y-17.08 Z-0.50
N6875 G01 X5.02 Y-17.01 Z-0.50
N6880 G01 X5.48 Y-16.99 Z-0.50
N6885 G01 X5.94 Y-17.01 Z-0.50
N6890 G01 X6.39 Y-17.08 Z-0.50
N6895 G01 X6.82 Y-17.19 Z-0.50
N6900 G01 X7.23 Y-17.35 Z-0.50
N6905 G01 X7.62 Y-17.54 Z-0.50
N6910 G01 X7.99 Y-17.77 Z-0.50
N6915 G01 X8.34 Y-18.04 Z-0.50
N6920 G01 X8.66 Y-18.33 Z-0.50
N6925 G01 X8.95 Y-18.66 Z-0.50
N6930 G01 X9.21 Y-19.01 Z-0.50
N6935 G01 X9.44 Y-19.39 Z-0.50
N6940 G01 X9.62 Y-19.80 Z-0.50
N6945 G01 X9.78 Y-20.22 Z-0.50
N6950 G01 X9.89 Y-20.66 Z-0.50
N6955 G01 X9.96 Y-21.12 Z-0.50
N6960 G01 X9.98 Y-21.59 Z-0.50
N6965 G00 X9.98 Y-21.59 Z60.00
N6970 G00 X8.07 Y-22.54 Z60.00
N6975 G00 X8.07 Y-22.54 Z3.00
N6980 G01 X8.07 Y-22.54 Z-0.50 F30.0
N6985 G01 X8.00 Y-22.78 Z-0.50 F60.0
N6990 G01 X7.92 Y-23.01 Z-0.50
N6995 G01 X7.82 Y-23.22 Z-0.50
N7000 G01 X7.72 Y-23.41 Z-0.50
N7005 G01 X7.60 Y-23.59 Z-0.50
N7010 G01 X7.47 Y-23.76 Z-0.50
N7015 G01 X7.32 Y-23.91 Z-0.50
N7020 G01 X7.16 Y-24.05 Z-0.50
N7025 G01 X7.00 Y-24.17 Z-0.50
N7030 G01 X6.82 Y-24.28 Z-0.50
N7035 G01 X6.63 Y-24.37 Z-0.50
N7040 G01 X6.44 Y-24.44 Z-0.50
N7045 G01 X6.23 Y-24.50 Z-0.50
N7050 G01 X6.02 Y-24.54 Z-0.50
N7055 G01 X5.79 Y-24.56 Z-0.50
N7060 G01 X5.56 Y-24.57 Z-0.50
N7065 G01 X5.10 Y-24.54 Z-0.50
N7070 G01 X4.68 Y-24.47 Z-0.50
N7075 G01 X4.48 Y-24.41 Z-0.50
N7080 G01 X4.30 Y-24.34 Z-0.50
N7085 G01 X4.13 Y-24.26 Z-0.50
N7090 G01 X3.97 Y-24.17 Z-0.50
N7095 G01 X3.68 Y-23.95 Z-0.50
N7100 G01 X3.43 Y-23.68 Z-0.50
N7105 G01 X3.22 Y-23.37 Z-0.50
N7110 G01 X3.04 Y-23.02 Z-0.50
N7115 G01 X2.90 Y-22.63 Z-0.50
N7120 G01 X2.80 Y-22.23 Z-0.50
N7125 G01 X2.74 Y-21.82 Z-0.50
N7130 G01 X2.72 Y-21.39 Z-0.50
N7135 G01 X2.74 Y-20.93 Z-0.50
N7140 G01 X2.81 Y-20.51 Z-0.50
N7145 G01 X2.92 Y-20.11 Z-0.50
N7150 G01 X3.08 Y-19.74 Z-0.50
N7155 G01 X3.28 Y-19.41 Z-0.50
N7160 G01 X3.52 Y-19.12 Z-0.50
N7165 G01 X3.79 Y-18.87 Z-0.50
N7170 G01 X4.11 Y-18.67 Z-0.50
N7175 G01 X4.45 Y-18.51 Z-0.50
N7180 G01 X4.81 Y-18.39 Z-0.50
N7185 G01 X5.18 Y-18.33 Z-0.50
N7190 G01 X5.58 Y-18.30 Z-0.50
N7195 G01 X5.80 Y-18.31 Z-0.50
N7200 G01 X6.01 Y-18.33 Z-0.50
N7205 G01 X6.22 Y-18.37 Z-0.50
N7210 G01 X6.41 Y-18.42 Z-0.50
N7215 G01 X6.60 Y-18.48 Z-0.50
N7220 G01 X6.78 Y-18.56 Z-0.50
N7225 G01 X6.94 Y-18.66 Z-0.50
N7230 G01 X7.10 Y-18.77 Z-0.50
N7235 G01 X7.25 Y-18.89 Z-0.50
N7240 G01 X7.39 Y-19.02 Z-0.50
N7245 G01 X7.52 Y-19.17 Z-0.50
N7250 G01 X7.63 Y-19.32 Z-0.50
N7255 G01 X7.73 Y-19.49 Z-0.50
N7260 G01 X7.82 Y-19.67 Z-0.50
N7265 G01 X7.90 Y-19.86 Z-0.50
N7270 G01 X7.97 Y-20.07 Z-0.50
N7275 G01 X7.18 Y-20.25 Z-0.50
N7280 G01 X7.06 Y-19.95 Z-0.50
N7285 G01 X6.92 Y-19.68 Z-0.50
N7290 G01 X6.76 Y-19.46 Z-0.50
N7295 G01 X6.57 Y-19.29 Z-0.50
N7300 G01 X6.36 Y-19.16 Z-0.50
N7305 G01 X6.12 Y-19.06 Z-0.50
N7310 G01 X5.85 Y-19.01 Z-0.50
N7315 G01 X5.56 Y-18.99 Z-0.50
N7320 G01 X5.23 Y-19.01 Z-0.50
N7325 G01 X4.92 Y-19.07 Z-0.50
N7330 G01 X4.64 Y-19.18 Z-0.50
N7335 G01 X4.40 Y-19.32 Z-0.50
N7340 G01 X4.18 Y-19.51 Z-0.50
N7345 G01 X4.00 Y-19.72 Z-0.50
N7350 G01 X3.85 Y-19.96 Z-0.50
N7355 G01 X3.74 Y-20.22 Z-0.50
N7360 G01 X3.66 Y-20.51 Z-0.50
N7365 G01 X3.60 Y-20.80 Z-0.50
N7370 G01 X3.56 Y-21.09 Z-0.50
N7375 G01 X3.55 Y-21.39 Z-0.50
N7380 G01 X3.56 Y-21.76 Z-0.50
N7385 G01 X3.60 Y-22.11 Z-0.50
N7390 G01 X3.67 Y-22.44 Z-0.50
N7395 G01 X3.77 Y-22.74 Z-0.50
N7400 G01 X3.90 Y-23.01 Z-0.50
N7405 G01 X4.06 Y-23.24 Z-0.50
N7410 G01 X4.25 Y-23.44 Z-0.50
N7415 G01 X4.47 Y-23.60 Z-0.50
N7420 G01 X4.71 Y-23.72 Z-0.50
N7425 G01 X4.96 Y-23.81 Z-0.50
N7430 G01 X5.23 Y-23.87 Z-0.50
N7435 G01 X5.50 Y-23.88 Z-0.50
N7440 G01 X5.82 Y-23.86 Z-0.50
N7445 G01 X6.12 Y-23.79 Z-0.50
N7450 G01 X6.39 Y-23.66 Z-0.50
N7455 G01 X6.63 Y-23.49 Z-0.50
N7460 G01 X6.85 Y-23.28 Z-0.50
N7465 G01 X7.02 Y-23.01 Z-0.50
N7470 G01 X7.16 Y-22.70 Z-0.50
N7475 G01 X7.26 Y-22.34 Z-0.50
N7480 G01 X8.07 Y-22.54 Z-0.50
N7485 G00 X8.07 Y-22.54 Z60.00
N7490 G00 X28.35 Y-10.28 Z60.00
N7495 G00 X28.35 Y-10.28 Z3.00
N7500 G01 X28.35 Y-10.28 Z-0.50 F30.0
N7505 G01 X23.94 Y-10.28 Z-0.50 F60.0
N7510 G01 X23.94 Y-2.28 Z-0.50
N7515 G01 X30.49 Y-2.29 Z-0.50
N7520 G00 X30.49 Y-2.29 Z60.00
N7525 G00 X34.83 Y-2.28 Z60.00
N7530 G00 X34.83 Y-2.28 Z3.00
N7535 G01 X34.83 Y-2.28 Z-0.50 F30.0
N7540 G01 X30.49 Y-2.28 Z-0.50 F60.0
N7545 G01 X30.48 Y-2.28 Z-0.50
N7550 G01 X30.22 Y-2.29 Z-0.50
N7555 G01 X29.98 Y-2.32 Z-0.50
N7560 G01 X29.74 Y-2.37 Z-0.50
N7565 G01 X29.51 Y-2.43 Z-0.50
N7570 G01 X29.29 Y-2.52 Z-0.50
N7575 G01 X29.08 Y-2.62 Z-0.50
N7580 G01 X28.89 Y-2.73 Z-0.50
N7585 G01 X28.71 Y-2.86 Z-0.50
N7590 G01 X28.55 Y-3.00 Z-0.50
N7595 G01 X28.41 Y-3.16 Z-0.50
N7600 G01 X28.28 Y-3.32 Z-0.50
N7605 G01 X28.18 Y-3.50 Z-0.50
N7610 G01 X28.09 Y-3.69 Z-0.50
N7615 G01 X28.03 Y-3.88 Z-0.50
N7620 G01 X27.99 Y-4.08 Z-0.50
N7625 G01 X27.98 Y-4.28 Z-0.50
N7630 G01 X27.99 Y-4.49 Z-0.50
N7635 G01 X28.03 Y-4.68 Z-0.50
N7640 G01 X28.09 Y-4.88 Z-0.50
N7645 G01 X28.18 Y-5.06 Z-0.50
N7650 G01 X28.28 Y-5.23 Z-0.50
N7655 G01 X28.41 Y-5.40 Z-0.50
N7660 G01 X28.55 Y-5.55 Z-0.50
N7665 G01 X28.71 Y-5.70 Z-0.50
N7670 G01 X28.89 Y-5.82 Z-0.50
N7675 G01 X29.08 Y-5.94 Z-0.50
N7680 G01 X29.29 Y-6.04 Z-0.50
N7685 G01 X29.51 Y-6.12 Z-0.50
N7690 G01 X29.74 Y-6.19 Z-0.50
N7695 G01 X29.98 Y-6.24 Z-0.50
N7700 G01 X30.22 Y-6.27 Z-0.50
N7705 G01 X30.48 Y-6.28 Z-0.50
N7710 G01 X32.08 Y-6.28 Z-0.50
N7715 G01 X32.33 Y-6.29 Z-0.50
N7720 G01 X32.58 Y-6.32 Z-0.50
N7725 G01 X32.82 Y-6.37 Z-0.50
N7730 G01 X33.05 Y-6.44 Z-0.50
N7735 G01 X33.27 Y-6.52 Z-0.50
N7740 G01 X33.48 Y-6.62 Z-0.50
N7745 G01 X33.67 Y-6.74 Z-0.50
N7750 G01 X33.85 Y-6.87 Z-0.50
N7755 G01 X34.01 Y-7.01 Z-0.50
N7760 G01 X34.15 Y-7.16 Z-0.50
N7765 G01 X34.28 Y-7.33 Z-0.50
N7770 G01 X34.38 Y-7.50 Z-0.50
N7775 G01 X34.47 Y-7.69 Z-0.50
N7780 G01 X34.53 Y-7.88 Z-0.50
N7785 G01 X34.57 Y-8.08 Z-0.50
N7790 G01 X34.58 Y-8.28 Z-0.50
N7795 G01 X34.57 Y-8.49 Z-0.50
N7800 G01 X34.53 Y-8.68 Z-0.50
N7805 G01 X34.47 Y-8.88 Z-0.50
N7810 G01 X34.38 Y-9.06 Z-0.50
N7815 G01 X34.28 Y-9.23 Z-0.50
N7820 G01 X34.15 Y-9.40 Z-0.50
N7825 G01 X34.01 Y-9.55 Z-0.50
N7830 G01 X33.85 Y-9.69 Z-0.50
N7835 G01 X33.67 Y-9.82 Z-0.50
N7840 G01 X33.48 Y-9.94 Z-0.50
N7845 G01 X33.27 Y-10.04 Z-0.50
N7850 G01 X33.05 Y-10.12 Z-0.50
N7855 G01 X32.82 Y-10.19 Z-0.50
N7860 G01 X32.58 Y-10.24 Z-0.50
N7865 G01 X32.33 Y-10.27 Z-0.50
N7870 G01 X32.08 Y-10.28 Z-0.50
N7875 G01 X32.07 Y-10.28 Z-0.50
N7880 G01 X28.35 Y-10.28 Z-0.50
N7885 G00 X28.35 Y-10.28 Z60.00
N7890 G00 X23.94 Y-2.28 Z60.00
N7895 G00 X23.94 Y-2.28 Z3.00
N7900 G01 X23.94 Y-2.28 Z-0.50 F30.0
N7905 G01 X16.84 Y-2.28 Z-0.50 F60.0
N7910 G01 X16.82 Y-2.28 Z-0.50
N7915 G01 X16.57 Y-2.29 Z-0.50
N7920 G01 X16.32 Y-2.32 Z-0.50
N7925 G01 X16.08 Y-2.37 Z-0.50
N7930 G01 X15.85 Y-2.43 Z-0.50
N7935 G01 X15.63 Y-2.52 Z-0.50
N7940 G01 X15.43 Y-2.62 Z-0.50
N7945 G01 X15.23 Y-2.73 Z-0.50
N7950 G01 X15.06 Y-2.86 Z-0.50
N7955 G01 X14.89 Y-3.00 Z-0.50
N7960 G01 X14.75 Y-3.16 Z-0.50
N7965 G01 X14.62 Y-3.32 Z-0.50
N7970 G01 X14.52 Y-3.50 Z-0.50
N7975 G01 X14.44 Y-3.68 Z-0.50
N7980 G01 X14.37 Y-3.88 Z-0.50
N7985 G01 X14.34 Y-4.08 Z-0.50
N7990 G01 X14.32 Y-4.28 Z-0.50
N7995 G01 X14.34 Y-4.49 Z-0.50
N8000 G01 X14.37 Y-4.68 Z-0.50
N8005 G01 X14.44 Y-4.88 Z-0.50
N8010 G01 X14.52 Y-5.06 Z-0.50
N8015 G01 X14.62 Y-5.23 Z-0.50
N8020 G01 X14.75 Y-5.40 Z-0.50
N8025 G01 X14.89 Y-5.55 Z-0.50
N8030 G01 X15.06 Y-5.69 Z-0.50
N8035 G01 X15.23 Y-5.82 Z-0.50
N8040 G01 X15.43 Y-5.94 Z-0.50
N8045 G01 X15.63 Y-6.04 Z-0.50
N8050 G01 X15.85 Y-6.12 Z-0.50
N8055 G01 X16.08 Y-6.19 Z-0.50
N8060 G01 X16.32 Y-6.24 Z-0.50
N8065 G01 X16.57 Y-6.27 Z-0.50
N8070 G01 X16.82 Y-6.28 Z-0.50
N8075 G01 X18.42 Y-6.28 Z-0.50
N8080 G01 X18.68 Y-6.29 Z-0.50
N8085 G01 X18.93 Y-6.32 Z-0.50
N8090 G01 X19.17 Y-6.37 Z-0.50
N8095 G01 X19.40 Y-6.44 Z-0.50
N8100 G01 X19.61 Y-6.52 Z-0.50
N8105 G01 X19.82 Y-6.62 Z-0.50
N8110 G01 X20.01 Y-6.74 Z-0.50
N8115 G01 X20.19 Y-6.87 Z-0.50
N8120 G01 X20.35 Y-7.01 Z-0.50
N8125 G01 X20.50 Y-7.16 Z-0.50
N8130 G01 X20.62 Y-7.33 Z-0.50
N8135 G01 X20.73 Y-7.50 Z-0.50
N8140 G01 X20.81 Y-7.69 Z-0.50
N8145 G01 X20.87 Y-7.88 Z-0.50
N8150 G01 X20.91 Y-8.08 Z-0.50
N8155 G01 X20.92 Y-8.28 Z-0.50
N8160 G01 X20.91 Y-8.48 Z-0.50
N8165 G01 X20.87 Y-8.68 Z-0.50
N8170 G01 X20.81 Y-8.88 Z-0.50
N8175 G01 X20.73 Y-9.06 Z-0.50
N8180 G01 X20.62 Y-9.23 Z-0.50
N8185 G01 X20.50 Y-9.40 Z-0.50
N8190 G01 X20.35 Y-9.55 Z-0.50
N8195 G01 X20.19 Y-9.69 Z-0.50
N8200 G01 X20.01 Y-9.82 Z-0.50
N8205 G01 X19.82 Y-9.94 Z-0.50
N8210 G01 X19.61 Y-10.04 Z-0.50
N8215 G01 X19.40 Y-10.12 Z-0.50
N8220 G01 X19.17 Y-10.19 Z-0.50
N8225 G01 X18.93 Y-10.24 Z-0.50
N8230 G01 X18.68 Y-10.27 Z-0.50
N8235 G01 X18.42 Y-10.28 Z-0.50
N8240 G01 X18.41 Y-10.28 Z-0.50
N8245 G01 X14.69 Y-10.28 Z-0.50
N8250 G00 X14.69 Y-10.28 Z60.00
N8255 ( Grundstellung anfahren )
N8260 G00 G40 Z80.00 (Radiuskomp. aus)
N8265 G00 X100.00 Y0.00
N8270 S0 M05 M09 (Spindel und KSS aus)
N8275 M30 ( Programm Ende )
%
